; generated by PrusaSlicer 2.6.1+win64 on 2023-11-03 at 16:16:26 UTC

; 

; external perimeters extrusion width = 0.42mm
; perimeters extrusion width = 0.44mm
; infill extrusion width = 0.44mm
; solid infill extrusion width = 0.44mm
; top infill extrusion width = 0.40mm
; first layer extrusion width = 0.42mm

M201 X500 Y500 Z100 E5000 ; sets maximum accelerations, mm/sec^2
M203 X500 Y500 Z10 E60 ; sets maximum feedrates, mm / sec
M204 S500 T1000 ; sets acceleration (S) and retract acceleration (R), mm/sec^2
M205 X8.00 Y8.00 Z0.40 E5.00 ; sets the jerk limits, mm/sec
M205 S0 T0 ; sets the minimum extruding and travel feed rate, mm/sec
;TYPE:Custom
G90 ; use absolute coordinates
M83 ; extruder relative mode
M104 S150 ; set temporary nozzle temp to prevent oozing during homing
M140 S60 ; set final bed temp
G4 S30 ; allow partial nozzle warmup
G28 ; home all axis
G1 Z50 F240
G1 X2.0 Y10 F3000
M104 S205 ; set final nozzle temp
M190 S60 ; wait for bed temp to stabilize
M109 S205 ; wait for nozzle temp to stabilize
G1 Z0.28 F240
G92 E0
G1 X2.0 Y140 E10 F1500 ; prime the nozzle
G1 X2.3 Y140 F5000
G92 E0
G1 X2.3 Y10 E10 F1200 ; prime the nozzle
G92 E0
G21 ; set units to millimeters
G90 ; use absolute coordinates
M83 ; use relative distances for extrusion
; Filament gcode
M107
;LAYER_CHANGE
;Z:0.2
;HEIGHT:0.2
;BEFORE_LAYER_CHANGE
G92 E0
;0.2


G1 E-5 F3600
G1 Z.2 F9000
;AFTER_LAYER_CHANGE
;0.2
G1 X60.142 Y77.401
G1 E5 F2400
M204 S500
;TYPE:Skirt/Brim
;WIDTH:0.42
G1 F1200
G1 X64.28 Y74.191 E.16421
G1 X68.414 Y71.692 E.15146
G1 X73.18 Y69.52 E.16422
G1 X78.173 Y67.938 E.16422
G1 X83.32 Y66.97 E.16421
G1 X88.546 Y66.629 E.16421
G1 X170.25 Y66.623 E2.56177
G1 X171.124 Y66.738 E.02764
G1 X171.624 Y66.872 E.01623
G1 X173.138 Y67.746 E.05481
G1 X173.504 Y68.112 E.01623
G1 X174.378 Y69.626 E.05481
G1 X174.627 Y71 E.04378
G1 X174.627 Y149 E2.44564
G1 X174.378 Y150.374 E.04378
G1 X173.504 Y151.888 E.05481
G1 X173.138 Y152.254 E.01623
G1 X171.624 Y153.128 E.05481
G1 X170.25 Y153.377 E.04378
G1 X88.75 Y153.377 E2.55538
G1 X83.725 Y153.079 E.15783
G1 X78.569 Y152.159 E.16422
G1 X73.18 Y150.48 E.17698
G1 X68.414 Y148.308 E.16422
G1 X63.945 Y145.578 E.1642
G1 X60.142 Y142.599 E.15147
G1 X56.422 Y138.913 E.1642
G1 X53.172 Y134.805 E.16424
G1 X50.442 Y130.336 E.1642
G1 X48.079 Y125.04 E.18183
G1 X46.591 Y120.181 E.15933
G1 X45.671 Y115.025 E.16422
G1 X45.379 Y109.796 E.16421
G1 X45.671 Y104.975 E.15144
G1 X46.688 Y99.423 E.17698
G1 X48.125 Y94.811 E.15146
G1 X50.252 Y90.025 E.16421
G1 X53.201 Y85.159 E.1784
G1 X56.422 Y81.087 E.16279
G1 X60.1 Y77.443 E.16234
; printing object Base.stl id:0 copy 0
G1 E-3.5 F3600
;WIPE_START
G1 F7200
G1 X62.592 Y75.504 E-1.5
;WIPE_END
G1 X62.963 Y80.833 F9000
G1 E5 F2400
;TYPE:Perimeter
;WIDTH:0.419999
G1 F1200
G1 X66.633 Y77.958 E.14617
G1 X70.657 Y75.526 E.14742
G1 X74.944 Y73.596 E.14741
G1 X79.433 Y72.197 E.14743
G1 X84.057 Y71.35 E.14739
G1 X88.782 Y71.064 E.14842
G1 X170.098 Y71.064 E2.5496
G1 X170.17 Y71.08 E.00231
G1 X170.186 Y71.152 E.00231
G1 X170.186 Y148.848 E2.4361
G1 X170.17 Y148.92 E.00231
G1 X170.11 Y148.936 E.00195
G1 X88.782 Y148.936 E2.54998
G1 X84.057 Y148.65 E.14842
G1 X79.433 Y147.803 E.14739
G1 X74.944 Y146.404 E.14743
G1 X70.657 Y144.474 E.14741
G1 X66.633 Y142.042 E.14742
G1 X62.932 Y139.142 E.14742
G1 X59.608 Y135.818 E.14739
G1 X56.708 Y132.117 E.14742
G1 X54.276 Y128.093 E.14742
G1 X52.346 Y123.806 E.14741
G1 X50.947 Y119.317 E.14743
G1 X50.1 Y114.693 E.14739
G1 X49.816 Y110 E.14741
G1 X50.1 Y105.307 E.14741
G1 X50.947 Y100.683 E.14739
G1 X52.346 Y96.194 E.14743
G1 X54.296 Y91.873 E.14864
G1 X56.708 Y87.883 E.14619
G1 X59.607 Y84.182 E.1474
G1 X62.921 Y80.876 E.14677
G1 X62.713 Y80.55 F9000
G1 F1200
G1 X66.418 Y77.647 E.14758
G1 X70.481 Y75.191 E.14886
G1 X74.81 Y73.243 E.14884
G1 X79.342 Y71.831 E.14883
G1 X84.011 Y70.975 E.14883
G1 X88.771 Y70.687 E.14952
G1 X170.098 Y70.687 E2.54995
G1 X170.394 Y70.75 E.00949
G1 X170.5 Y70.856 E.0047
G1 X170.563 Y71.152 E.00949
G1 X170.563 Y148.848 E2.4361
G1 X170.5 Y149.144 E.00949
G1 X170.394 Y149.25 E.0047
G1 X170.16 Y149.313 E.0076
G1 X88.771 Y149.313 E2.55189
G1 X84.011 Y149.025 E.14952
G1 X79.342 Y148.169 E.14883
G1 X74.81 Y146.757 E.14883
G1 X70.481 Y144.809 E.14884
G1 X66.418 Y142.353 E.14886
G1 X62.682 Y139.425 E.14883
G1 X59.325 Y136.068 E.14885
G1 X56.397 Y132.332 E.14883
G1 X53.941 Y128.269 E.14886
G1 X51.993 Y123.94 E.14884
G1 X50.581 Y119.408 E.14883
G1 X49.725 Y114.739 E.14883
G1 X49.438 Y110 E.14886
G1 X49.725 Y105.261 E.14886
G1 X50.581 Y100.592 E.14883
G1 X51.993 Y96.06 E.14883
G1 X53.962 Y91.697 E.15008
G1 X56.397 Y87.668 E.14761
G1 X59.325 Y83.932 E.14883
G1 X62.67 Y80.593 E.14819
G1 X62.462 Y80.267 F9000
;TYPE:External perimeter
G1 F1200
G1 X66.204 Y77.336 E.14903
G1 X70.305 Y74.857 E.15025
G1 X74.676 Y72.89 E.15029
G1 X79.252 Y71.464 E.15028
G1 X83.966 Y70.6 E.15027
G1 X88.759 Y70.31 E.15056
G1 X170.098 Y70.31 E2.55032
G1 X170.59 Y70.412 E.01575
G1 X170.838 Y70.66 E.011
G1 X170.94 Y71.152 E.01575
G1 X170.94 Y148.848 E2.4361
G1 X170.838 Y149.34 E.01575
G1 X170.59 Y149.588 E.011
G1 X170.209 Y149.69 E.01237
G1 X88.759 Y149.69 E2.5538
G1 X83.966 Y149.4 E.15056
G1 X79.252 Y148.536 E.15027
G1 X74.676 Y147.11 E.15028
G1 X70.305 Y145.143 E.15029
G1 X66.204 Y142.664 E.15025
G1 X62.431 Y139.708 E.15028
G1 X59.042 Y136.319 E.15027
G1 X56.086 Y132.546 E.15028
G1 X53.607 Y128.445 E.15025
G1 X51.64 Y124.074 E.15029
G1 X50.214 Y119.498 E.15028
G1 X49.35 Y114.784 E.15027
G1 X49.061 Y110 E.15027
G1 X49.35 Y105.216 E.15027
G1 X50.214 Y100.502 E.15027
G1 X51.64 Y95.926 E.15028
G1 X53.627 Y91.521 E.15152
G1 X56.086 Y87.454 E.14901
G1 X59.042 Y83.681 E.15028
G1 X62.42 Y80.31 E.14963
G1 X62.842 Y80.394 F9000
G1 E-3.5 F3600
;WIPE_START
G1 F7200
G1 X64.903 Y78.359 E-1.5
;WIPE_END
G1 X116.009 Y82.033 F9000
G1 E5 F2400
;TYPE:Perimeter
G1 F1200
G1 X115.796 Y81.665 E.01333
G1 X115.708 Y81.429 E.0079
G1 X115.689 Y81.128 E.00946
G1 X115.753 Y80.477 E.02051
G1 X115.849 Y80.147 E.01078
G1 X116.378 Y79.465 E.02706
G1 X116.572 Y79.286 E.00828
G1 X116.833 Y79.161 E.00907
G1 X117.441 Y78.976 E.01993
G1 X117.715 Y78.936 E.00868
G1 X147.766 Y78.936 E.94223
G1 X148.01 Y78.968 E.00772
G1 X148.557 Y79.115 E.01776
G1 X148.86 Y79.258 E.01051
G1 X149.392 Y79.771 E.02317
G1 X149.573 Y80.025 E.00978
G1 X149.782 Y80.74 E.02336
G1 X149.814 Y81.25 E.01602
G1 X149.814 Y104.016 E.71381
G1 X149.782 Y104.26 E.00772
G1 X149.635 Y104.807 E.01776
G1 X149.475 Y105.134 E.01141
G1 X148.979 Y105.642 E.02226
G1 X148.742 Y105.814 E.00918
G1 X148.01 Y106.032 E.02395
G1 X147.766 Y106.064 E.00772
G1 X129.294 Y106.064 E.57918
G1 X128.573 Y105.917 E.02307
G1 X128.25 Y105.77 E.01113
G1 X127.778 Y105.369 E.01942
G1 X127.556 Y105.088 E.01123
G1 X127.328 Y104.535 E.01875
G1 X127.279 Y104.369 E.00543
G1 X126.443 Y100.246 E.1319
G1 X125.191 Y96.29 E.1301
G1 X123.525 Y92.491 E.13007
G1 X121.465 Y88.891 E.13005
G1 X119.033 Y85.53 E.13008
G1 X116.225 Y82.409 E.13163
G1 X116.039 Y82.085 E.01171
G1 X116.216 Y81.643 F9000
G1 F1200
G1 X116.129 Y81.487 E.0056
G1 X116.076 Y81.346 E.00472
G1 X116.129 Y80.514 E.02614
G1 X116.216 Y80.263 E.00833
G1 X116.669 Y79.704 E.02256
G1 X116.86 Y79.554 E.00761
G1 X117.551 Y79.337 E.02271
G1 X117.715 Y79.313 E.0052
G1 X147.766 Y79.313 E.94223
G1 X148.459 Y79.479 E.02234
G1 X148.713 Y79.625 E.00919
G1 X149.125 Y80.037 E.01827
G1 X149.271 Y80.291 E.00919
G1 X149.418 Y80.838 E.01776
G1 X149.437 Y81.25 E.01293
G1 X149.437 Y104.016 E.71381
G1 X149.271 Y104.709 E.02234
G1 X149.153 Y104.933 E.00794
G1 X148.713 Y105.375 E.01955
G1 X148.459 Y105.521 E.00919
G1 X147.912 Y105.668 E.01776
G1 X147.766 Y105.687 E.00462
G1 X129.294 Y105.687 E.57918
G1 X128.661 Y105.55 E.02031
G1 X128.425 Y105.429 E.00832
G1 X128.024 Y105.083 E.01661
G1 X127.87 Y104.867 E.00832
G1 X127.678 Y104.393 E.01603
G1 X126.808 Y100.151 E.13577
G1 X125.544 Y96.157 E.13135
G1 X123.863 Y92.321 E.13132
G1 X121.782 Y88.686 E.13133
G1 X119.327 Y85.293 E.13131
G1 X116.506 Y82.157 E.13226
G1 X116.246 Y81.695 E.01662
G1 X116.444 Y81.262 F9000
;TYPE:External perimeter
G1 F1200
G1 X116.504 Y80.55 E.0224
G1 X116.546 Y80.449 E.00343
G1 X116.961 Y79.943 E.02052
G1 X117.052 Y79.883 E.00342
G1 X117.715 Y79.69 E.02165
G1 X147.766 Y79.69 E.94223
G1 X148.362 Y79.843 E.01929
G1 X148.858 Y80.304 E.02123
G1 X149.054 Y80.935 E.02072
G1 X149.06 Y104.016 E.72369
G1 X148.907 Y104.612 E.01929
G1 X148.446 Y105.108 E.02123
G1 X147.766 Y105.31 E.02224
G1 X129.294 Y105.31 E.57918
G1 X128.75 Y105.184 E.01751
G1 X128.271 Y104.798 E.01929
G1 X128.028 Y104.252 E.01874
G1 X127.174 Y100.056 E.13426
G1 X125.898 Y96.024 E.1326
G1 X124.2 Y92.152 E.13256
G1 X122.1 Y88.481 E.1326
G1 X119.621 Y85.056 E.13257
G1 X116.786 Y81.905 E.1329
G1 X116.466 Y81.318 E.02096
G1 X116.068 Y81.126 F9000
G1 E-3.5 F3600
;WIPE_START
G1 F7200
G1 X116.504 Y80.55 E-.36525
G1 X116.546 Y80.449 E-.05196
G1 X116.961 Y79.943 E-.31085
G1 X117.052 Y79.883 E-.05178
G1 X117.715 Y79.69 E-.328
G1 X118.541 Y79.69 E-.39216
;WIPE_END
G1 X116.456 Y140.607 F9000
G1 E5 F2400
;TYPE:Perimeter
G1 F1200
G1 X116.378 Y140.535 E.00333
G1 X115.963 Y140.029 E.02052
G1 X115.81 Y139.766 E.00954
G1 X115.753 Y139.523 E.00783
G1 X115.689 Y138.872 E.02051
G1 X115.72 Y138.523 E.01099
G1 X116.162 Y137.669 E.03015
G1 X119.058 Y134.438 E.13604
G1 X121.465 Y131.109 E.1288
G1 X123.525 Y127.509 E.13005
G1 X125.191 Y123.71 E.13007
G1 X126.431 Y119.793 E.12882
G1 X127.28 Y115.625 E.13337
G1 X127.52 Y114.992 E.02123
G1 X127.688 Y114.721 E.01
G1 X128.179 Y114.286 E.02057
G1 X128.447 Y114.123 E.00984
G1 X129.072 Y113.962 E.02024
G1 X129.294 Y113.936 E.00701
G1 X147.766 Y113.936 E.57918
G1 X148.557 Y114.115 E.02543
G1 X148.881 Y114.273 E.0113
G1 X149.392 Y114.771 E.02237
G1 X149.591 Y115.065 E.01113
G1 X149.782 Y115.74 E.022
G1 X149.814 Y115.984 E.00772
G1 X149.814 Y139.016 E.72215
G1 X149.782 Y139.26 E.00772
G1 X149.635 Y139.807 E.01776
G1 X149.465 Y140.147 E.01192
G1 X148.979 Y140.642 E.02175
G1 X148.718 Y140.826 E.01001
G1 X148.01 Y141.032 E.02312
G1 X147.766 Y141.064 E.00772
G1 X117.715 Y141.064 E.94223
G1 X117.441 Y141.024 E.00868
G1 X116.833 Y140.839 E.01993
G1 X116.572 Y140.714 E.00907
G1 X116.501 Y140.648 E.00304
G1 X116.682 Y140.303 F9000
G1 F1200
G1 X116.254 Y139.79 E.02095
G1 X116.135 Y139.532 E.00891
G1 X116.065 Y138.835 E.02196
G1 X116.11 Y138.553 E.00895
G1 X116.427 Y137.955 E.02122
G1 X116.468 Y137.89 E.00241
G1 X119.352 Y134.675 E.13542
G1 X121.782 Y131.314 E.13004
G1 X123.863 Y127.679 E.13133
G1 X125.544 Y123.843 E.13132
G1 X126.796 Y119.888 E.13007
G1 X127.649 Y115.703 E.13392
G1 X127.87 Y115.133 E.01917
G1 X128.024 Y114.917 E.00832
G1 X128.425 Y114.571 E.01661
G1 X128.662 Y114.45 E.00834
G1 X129.161 Y114.329 E.0161
G1 X129.294 Y114.313 E.0042
G1 X147.766 Y114.313 E.57918
G1 X148.459 Y114.479 E.02234
G1 X148.713 Y114.625 E.00919
G1 X149.125 Y115.037 E.01827
G1 X149.259 Y115.252 E.00794
G1 X149.418 Y115.838 E.01904
G1 X149.437 Y115.984 E.00462
G1 X149.437 Y139.016 E.72215
G1 X149.271 Y139.709 E.02234
G1 X149.125 Y139.963 E.00919
G1 X148.713 Y140.375 E.01827
G1 X148.459 Y140.521 E.00919
G1 X147.912 Y140.668 E.01776
G1 X147.766 Y140.687 E.00462
G1 X117.715 Y140.687 E.94223
G1 X116.942 Y140.478 E.02511
G1 X116.72 Y140.35 E.00803
G1 X116.961 Y140.057 F9000
;TYPE:External perimeter
G1 F1200
G1 X116.546 Y139.551 E.02052
G1 X116.504 Y139.45 E.00343
G1 X116.44 Y138.798 E.02054
G1 X116.461 Y138.691 E.00342
G1 X116.76 Y138.132 E.01988
G1 X119.646 Y134.912 E.13558
G1 X122.1 Y131.519 E.13129
G1 X124.2 Y127.848 E.1326
G1 X125.898 Y123.976 E.13256
G1 X127.162 Y119.983 E.13132
G1 X128.018 Y115.778 E.13455
G1 X128.219 Y115.274 E.01701
G1 X128.671 Y114.857 E.01928
G1 X129.294 Y114.69 E.02022
G1 X147.766 Y114.69 E.57918
G1 X148.362 Y114.843 E.01929
G1 X148.858 Y115.304 E.02123
G1 X149.06 Y115.984 E.02224
G1 X149.06 Y139.016 E.72215
G1 X148.907 Y139.612 E.01929
G1 X148.446 Y140.108 E.02123
G1 X147.766 Y140.31 E.02224
G1 X117.715 Y140.31 E.94223
G1 X117.052 Y140.117 E.02165
G1 X117.011 Y140.09 E.00154
G1 X116.585 Y140.194 F9000
G1 E-3.5 F3600
;WIPE_START
G1 F7200
G1 X116.546 Y139.551 E-.33813
G1 X116.504 Y139.45 E-.05196
G1 X116.44 Y138.798 E-.31119
G1 X116.461 Y138.691 E-.05179
G1 X116.76 Y138.132 E-.30112
G1 X117.386 Y137.433 E-.44581
;WIPE_END
G1 X170.065 Y71.947 F9000
G1 E5 F2400
;TYPE:Solid infill
;WIDTH:0.420153
G1 F1200
G1 X169.472 Y71.355 E.02628
G1 X168.939 Y71.355 E.01672
G1 X169.895 Y72.311 E.04241
G1 X169.895 Y72.845 E.01675
G1 X168.405 Y71.355 E.0661
G1 X167.872 Y71.355 E.01672
G1 X169.895 Y73.378 E.08974
G1 X169.895 Y73.912 E.01675
G1 X167.338 Y71.355 E.11343
G1 X166.805 Y71.355 E.01672
G1 X169.895 Y74.445 E.13707
G1 X169.895 Y74.979 E.01675
G1 X166.271 Y71.355 E.16076
G1 X165.738 Y71.355 E.01672
G1 X169.895 Y75.512 E.1844
G1 X169.895 Y76.046 E.01675
G1 X165.204 Y71.355 E.20809
G1 X164.671 Y71.355 E.01672
G1 X169.895 Y76.579 E.23174
G1 X169.895 Y77.113 E.01675
G1 X164.137 Y71.355 E.25542
G1 X163.604 Y71.355 E.01672
G1 X169.895 Y77.646 E.27907
G1 X169.895 Y78.18 E.01675
G1 X163.07 Y71.355 E.30276
G1 X162.537 Y71.355 E.01672
G1 X169.895 Y78.713 E.3264
G1 X169.895 Y79.247 E.01675
G1 X162.003 Y71.355 E.35009
G1 X161.47 Y71.355 E.01672
G1 X169.895 Y79.78 E.37373
G1 X169.895 Y80.314 E.01675
G1 X160.936 Y71.355 E.39742
G1 X160.403 Y71.355 E.01672
G1 X169.895 Y80.847 E.42106
G1 X169.895 Y81.381 E.01675
G1 X159.869 Y71.355 E.44475
G1 X159.336 Y71.355 E.01672
G1 X169.895 Y81.914 E.46839
G1 X169.895 Y82.447 E.01672
G1 X158.803 Y71.355 E.49204
G1 X158.269 Y71.355 E.01675
G1 X169.895 Y82.981 E.51573
G1 X169.895 Y83.514 E.01672
G1 X157.736 Y71.355 E.53937
G1 X157.202 Y71.355 E.01675
G1 X169.895 Y84.048 E.56306
G1 X169.895 Y84.581 E.01672
G1 X156.669 Y71.355 E.5867
G1 X156.135 Y71.355 E.01675
G1 X169.895 Y85.115 E.61039
G1 X169.895 Y85.648 E.01672
G1 X155.602 Y71.355 E.63403
G1 X155.068 Y71.355 E.01675
G1 X169.895 Y86.182 E.65772
G1 X169.895 Y86.715 E.01672
G1 X154.535 Y71.355 E.68137
G1 X154.001 Y71.355 E.01675
G1 X169.895 Y87.249 E.70505
G1 X169.895 Y87.782 E.01672
G1 X153.468 Y71.355 E.7287
G1 X152.934 Y71.355 E.01675
G1 X169.895 Y88.316 E.75239
G1 X169.895 Y88.849 E.01672
G1 X152.401 Y71.355 E.77603
G1 X151.867 Y71.355 E.01675
G1 X169.895 Y89.383 E.79972
G1 X169.895 Y89.916 E.01672
G1 X151.334 Y71.355 E.82336
G1 X150.8 Y71.355 E.01675
G1 X169.895 Y90.45 E.84705
G1 X169.895 Y90.983 E.01672
G1 X150.267 Y71.355 E.87069
G1 X149.733 Y71.355 E.01675
G1 X169.895 Y91.517 E.89438
G1 X169.895 Y92.05 E.01672
G1 X149.2 Y71.355 E.91802
G1 X148.666 Y71.355 E.01675
G1 X169.895 Y92.584 E.94171
G1 X169.895 Y93.117 E.01672
G1 X148.133 Y71.355 E.96536
G1 X147.599 Y71.355 E.01675
G1 X169.895 Y93.651 E.98904
G1 X169.895 Y94.184 E.01672
G1 X147.066 Y71.355 E1.01269
G1 X146.532 Y71.355 E.01675
G1 X169.895 Y94.718 E1.03638
G1 X169.895 Y95.251 E.01672
G1 X145.999 Y71.355 E1.06002
G1 X145.465 Y71.355 E.01675
G1 X169.895 Y95.785 E1.08371
G1 X169.895 Y96.318 E.01672
G1 X144.932 Y71.355 E1.10735
G1 X144.398 Y71.355 E.01675
G1 X169.895 Y96.852 E1.13104
G1 X169.895 Y97.385 E.01672
G1 X143.865 Y71.355 E1.15468
G1 X143.331 Y71.355 E.01675
G1 X169.895 Y97.919 E1.17837
G1 X169.895 Y98.452 E.01672
G1 X142.798 Y71.355 E1.20202
G1 X142.264 Y71.355 E.01675
G1 X169.895 Y98.986 E1.2257
G1 X169.895 Y99.519 E.01672
G1 X141.731 Y71.355 E1.24935
G1 X141.197 Y71.355 E.01675
G1 X169.895 Y100.053 E1.27304
G1 X169.895 Y100.586 E.01672
G1 X150.077 Y80.767 E.87914
G1 X150.105 Y80.977 E.00665
G1 X150.105 Y81.329 E.01104
G1 X169.895 Y101.12 E.8779
G1 X169.895 Y101.653 E.01672
G1 X150.105 Y81.862 E.8779
G1 X150.105 Y82.396 E.01675
G1 X169.895 Y102.187 E.8779
G1 X169.895 Y102.72 E.01672
G1 X150.105 Y82.929 E.8779
G1 X150.105 Y83.463 E.01675
G1 X169.895 Y103.254 E.8779
G1 X169.895 Y103.787 E.01672
G1 X150.105 Y83.996 E.8779
G1 X150.105 Y84.53 E.01675
G1 X169.895 Y104.321 E.8779
G1 X169.895 Y104.854 E.01672
G1 X150.105 Y85.063 E.8779
G1 X150.105 Y85.596 E.01672
G1 X169.895 Y105.387 E.8779
G1 X169.895 Y105.921 E.01675
G1 X150.105 Y86.13 E.8779
G1 X150.105 Y86.663 E.01672
G1 X169.895 Y106.454 E.8779
G1 X169.895 Y106.988 E.01675
