; generated by PrusaSlicer 2.6.1+win64 on 2023-11-03 at 16:12:57 UTC

; 

; external perimeters extrusion width = 0.42mm
; perimeters extrusion width = 0.44mm
; infill extrusion width = 0.44mm
; solid infill extrusion width = 0.44mm
; top infill extrusion width = 0.40mm
; first layer extrusion width = 0.42mm

M201 X500 Y500 Z100 E5000 ; sets maximum accelerations, mm/sec^2
M203 X500 Y500 Z10 E60 ; sets maximum feedrates, mm / sec
M204 S500 T1000 ; sets acceleration (S) and retract acceleration (R), mm/sec^2
M205 X8.00 Y8.00 Z0.40 E5.00 ; sets the jerk limits, mm/sec
M205 S0 T0 ; sets the minimum extruding and travel feed rate, mm/sec
;TYPE:Custom
G90 ; use absolute coordinates
M83 ; extruder relative mode
M104 S150 ; set temporary nozzle temp to prevent oozing during homing
M140 S60 ; set final bed temp
G4 S30 ; allow partial nozzle warmup
G28 ; home all axis
G1 Z50 F240
G1 X2.0 Y10 F3000
M104 S205 ; set final nozzle temp
M190 S60 ; wait for bed temp to stabilize
M109 S205 ; wait for nozzle temp to stabilize
G1 Z0.28 F240
G92 E0
G1 X2.0 Y140 E10 F1500 ; prime the nozzle
G1 X2.3 Y140 F5000
G92 E0
G1 X2.3 Y10 E10 F1200 ; prime the nozzle
G92 E0
G21 ; set units to millimeters
G90 ; use absolute coordinates
M83 ; use relative distances for extrusion
; Filament gcode
M107
;LAYER_CHANGE
;Z:0.2
;HEIGHT:0.2
;BEFORE_LAYER_CHANGE
G92 E0
;0.2


G1 E-5 F3600
G1 Z.2 F9000
;AFTER_LAYER_CHANGE
;0.2
G1 X103.492 Y91.501
G1 E5 F2400
M204 S500
;TYPE:Skirt/Brim
;WIDTH:0.42
G1 F1200
G1 X105.75 Y90.746 E.07465
G1 X114.25 Y90.746 E.26651
G1 X115.926 Y91.141 E.05399
G1 X117.249 Y92.242 E.05397
G1 X118.004 Y94.5 E.07465
G1 X118.004 Y125.5 E.97198
G1 X117.609 Y127.176 E.05399
G1 X116.508 Y128.499 E.05397
G1 X114.25 Y129.254 E.07465
G1 X105.75 Y129.254 E.26651
G1 X104.074 Y128.859 E.05399
G1 X102.751 Y127.758 E.05397
G1 X101.996 Y125.5 E.07465
G1 X101.996 Y94.5 E.97198
G1 X102.391 Y92.824 E.05399
G1 X103.453 Y91.547 E.05208
G1 X103.754 Y91.818 F9000
G1 F1200
G1 X103.857 Y91.703 E.00484
G1 X105.75 Y91.123 E.06208
G1 X114.25 Y91.123 E.26651
G1 X115.833 Y91.517 E.05115
G1 X117.047 Y92.607 E.05116
G1 X117.627 Y94.5 E.06208
G1 X117.627 Y125.5 E.97198
G1 X117.233 Y127.083 E.05115
G1 X116.143 Y128.297 E.05116
G1 X114.25 Y128.877 E.06208
G1 X105.75 Y128.877 E.26651
G1 X104.167 Y128.483 E.05115
G1 X102.953 Y127.393 E.05116
G1 X102.373 Y125.5 E.06208
G1 X102.373 Y94.5 E.97198
G1 X102.767 Y92.917 E.05115
G1 X103.714 Y91.862 E.04445
; printing object LOLIN C3 Mini Holder.stl id:0 copy 0
G1 E-3.5 F3600
;WIPE_START
G1 F7200
G1 X103.857 Y91.703 E-.10158
G1 X105.75 Y91.123 E-.94043
G1 X106.714 Y91.123 E-.45799
;WIPE_END
G1 X106.814 Y95.564 F9000
G1 E5 F2400
;TYPE:Perimeter
;WIDTH:0.419999
G1 F1200
G1 X113.186 Y95.564 E.19979
G1 X113.186 Y124.436 E.90526
G1 X106.814 Y124.436 E.19979
G1 X106.814 Y95.624 E.90338
G1 X106.437 Y95.187 F9000
G1 F1200
G1 X113.563 Y95.187 E.22343
G1 X113.563 Y124.813 E.9289
G1 X106.437 Y124.813 E.22343
G1 X106.437 Y95.247 E.92702
G1 X106.06 Y94.81 F9000
;TYPE:External perimeter
G1 F1200
G1 X113.94 Y94.81 E.24707
G1 X113.94 Y125.19 E.95254
G1 X106.06 Y125.19 E.24707
G1 X106.06 Y94.87 E.95066
G1 X106.422 Y94.98 F9000
G1 E-3.5 F3600
;WIPE_START
G1 F7200
G1 X109.218 Y94.846 E-1.5
;WIPE_END
G1 X112.299 Y95.685 F9000
G1 E5 F2400
;TYPE:Solid infill
;WIDTH:0.421887
G1 F1200
G1 X112.895 Y96.281 E.02656
G1 X112.895 Y96.817 E.01689
G1 X111.933 Y95.855 E.04287
G1 X111.397 Y95.855 E.01689
G1 X112.895 Y97.353 E.06676
G1 X112.895 Y97.889 E.01689
G1 X110.861 Y95.855 E.09064
G1 X110.325 Y95.855 E.01689
G1 X112.895 Y98.425 E.11453
G1 X112.895 Y98.961 E.01689
G1 X109.789 Y95.855 E.13841
G1 X109.253 Y95.855 E.01689
G1 X112.895 Y99.497 E.1623
G1 X112.895 Y100.033 E.01689
G1 X108.717 Y95.855 E.18619
G1 X108.181 Y95.855 E.01689
G1 X112.895 Y100.569 E.21007
G1 X112.895 Y101.105 E.01689
G1 X107.645 Y95.855 E.23396
G1 X107.109 Y95.855 E.01689
G1 X112.895 Y101.641 E.25785
G1 X112.895 Y102.177 E.01689
G1 X107.105 Y96.386 E.25805
G1 X107.105 Y96.922 E.01689
G1 X112.895 Y102.713 E.25805
G1 X112.895 Y103.249 E.01689
G1 X107.105 Y97.458 E.25805
G1 X107.105 Y97.994 E.01689
G1 X112.895 Y103.785 E.25805
G1 X112.895 Y104.321 E.01689
G1 X107.105 Y98.53 E.25805
G1 X107.105 Y99.065 E.01686
G1 X112.895 Y104.856 E.25805
G1 X112.895 Y105.392 E.01689
G1 X107.105 Y99.601 E.25805
G1 X107.105 Y100.137 E.01689
G1 X112.895 Y105.928 E.25805
G1 X112.895 Y106.464 E.01689
G1 X107.105 Y100.673 E.25805
G1 X107.105 Y101.209 E.01689
G1 X112.895 Y107 E.25805
G1 X112.895 Y107.536 E.01689
G1 X107.105 Y101.745 E.25805
G1 X107.105 Y102.281 E.01689
G1 X112.895 Y108.072 E.25805
G1 X112.895 Y108.608 E.01689
G1 X107.105 Y102.817 E.25805
G1 X107.105 Y103.353 E.01689
G1 X112.895 Y109.144 E.25805
G1 X112.895 Y109.68 E.01689
G1 X107.105 Y103.889 E.25805
G1 X107.105 Y104.425 E.01689
G1 X112.895 Y110.216 E.25805
G1 X112.895 Y110.752 E.01689
G1 X107.105 Y104.961 E.25805
G1 X107.105 Y105.497 E.01689
G1 X112.895 Y111.288 E.25805
G1 X112.895 Y111.824 E.01689
G1 X107.105 Y106.033 E.25805
G1 X107.105 Y106.569 E.01689
G1 X112.895 Y112.36 E.25805
G1 X112.895 Y112.896 E.01689
G1 X107.105 Y107.105 E.25805
G1 X107.105 Y107.641 E.01689
G1 X112.895 Y113.431 E.25802
G1 X112.895 Y113.967 E.01689
G1 X107.105 Y108.176 E.25805
G1 X107.105 Y108.712 E.01689
G1 X112.895 Y114.503 E.25805
G1 X112.895 Y115.039 E.01689
G1 X107.105 Y109.248 E.25805
G1 X107.105 Y109.784 E.01689
G1 X112.895 Y115.575 E.25805
G1 X112.895 Y116.111 E.01689
G1 X107.105 Y110.32 E.25805
G1 X107.105 Y110.856 E.01689
G1 X112.895 Y116.647 E.25805
G1 X112.895 Y117.183 E.01689
G1 X107.105 Y111.392 E.25805
G1 X107.105 Y111.928 E.01689
G1 X112.895 Y117.719 E.25805
G1 X112.895 Y118.255 E.01689
G1 X107.105 Y112.464 E.25805
G1 X107.105 Y113 E.01689
G1 X112.895 Y118.791 E.25805
G1 X112.895 Y119.327 E.01689
G1 X107.105 Y113.536 E.25805
G1 X107.105 Y114.072 E.01689
G1 X112.895 Y119.863 E.25805
G1 X112.895 Y120.399 E.01689
G1 X107.105 Y114.608 E.25805
G1 X107.105 Y115.144 E.01689
G1 X112.895 Y120.935 E.25805
G1 X112.895 Y121.471 E.01689
G1 X107.105 Y115.68 E.25805
G1 X107.105 Y116.216 E.01689
G1 X112.895 Y122.007 E.25805
G1 X112.895 Y122.542 E.01686
G1 X107.105 Y116.751 E.25805
G1 X107.105 Y117.287 E.01689
G1 X112.895 Y123.078 E.25805
G1 X112.895 Y123.614 E.01689
G1 X107.105 Y117.823 E.25805
G1 X107.105 Y118.359 E.01689
G1 X112.891 Y124.145 E.25785
G1 X112.355 Y124.145 E.01689
G1 X107.105 Y118.895 E.23396
G1 X107.105 Y119.431 E.01689
G1 X111.819 Y124.145 E.21007
G1 X111.283 Y124.145 E.01689
G1 X107.105 Y119.967 E.18619
G1 X107.105 Y120.503 E.01689
G1 X110.747 Y124.145 E.1623
G1 X110.211 Y124.145 E.01689
G1 X107.105 Y121.039 E.13841
G1 X107.105 Y121.575 E.01689
G1 X109.675 Y124.145 E.11453
G1 X109.139 Y124.145 E.01689
G1 X107.105 Y122.111 E.09064
G1 X107.105 Y122.647 E.01689
G1 X108.603 Y124.145 E.06676
G1 X108.067 Y124.145 E.01689
G1 X107.105 Y123.183 E.04287
G1 X107.105 Y123.719 E.01689
G1 X107.701 Y124.315 E.02656
; stop printing object LOLIN C3 Mini Holder.stl id:0 copy 0
M106 S255
;LAYER_CHANGE
;Z:0.36
;HEIGHT:0.16
;BEFORE_LAYER_CHANGE
G92 E0
;0.36


G1 E-3.5 F3600
;WIPE_START
G1 F7200
G1 X107.105 Y123.719 E-.40036
G1 X107.105 Y123.183 E-.2546
G1 X108.067 Y124.145 E-.64622
G1 X108.486 Y124.145 E-.19882
;WIPE_END
G1 Z.36 F9000
;AFTER_LAYER_CHANGE
;0.36
M104 S200 ; set temperature
G1 X108.486 Y129.254
G1 E5 F2400
;TYPE:Skirt/Brim
;WIDTH:0.42
G1 X105.75 Y129.254 E.07019
G1 X104.074 Y128.859 E.04417
G1 X102.751 Y127.758 E.04416
G1 X101.996 Y125.5 E.06108
G1 X101.996 Y94.5 E.79529
G1 X102.391 Y92.824 E.04417
G1 X103.492 Y91.501 E.04416
G1 X105.75 Y90.746 E.06108
G1 X114.25 Y90.746 E.21806
G1 X115.926 Y91.141 E.04417
G1 X117.249 Y92.242 E.04416
G1 X118.004 Y94.5 E.06108
G1 X118.004 Y125.5 E.79529
G1 X117.609 Y127.176 E.04417
G1 X116.508 Y128.499 E.04416
G1 X114.25 Y129.254 E.06108
G1 X108.546 Y129.254 E.14633
G1 X108.546 Y128.877 F9000
G1 F2400
G1 X105.75 Y128.877 E.07173
G1 X104.167 Y128.483 E.04185
G1 X102.953 Y127.393 E.04186
G1 X102.373 Y125.5 E.05079
G1 X102.373 Y94.5 E.79529
G1 X102.767 Y92.917 E.04185
G1 X103.857 Y91.703 E.04186
G1 X105.75 Y91.123 E.05079
G1 X114.25 Y91.123 E.21806
G1 X115.833 Y91.517 E.04185
G1 X117.047 Y92.607 E.04186
G1 X117.627 Y94.5 E.05079
G1 X117.627 Y125.5 E.79529
G1 X117.233 Y127.083 E.04185
G1 X116.143 Y128.297 E.04186
G1 X114.25 Y128.877 E.05079
G1 X108.606 Y128.877 E.14479
; printing object LOLIN C3 Mini Holder.stl id:0 copy 0
G1 E-3.5 F3600
;WIPE_START
G1 F7200
G1 X105.75 Y128.877 E-1.3566
G1 X105.457 Y128.804 E-.1434
;WIPE_END
G1 X106.761 Y124.489 F9000
G1 E5 F2400
;TYPE:Perimeter
;WIDTH:0.439999
G1 X106.761 Y95.511 E.78197
G1 X113.239 Y95.511 E.17481
G1 X113.239 Y124.489 E.78197
G1 X106.821 Y124.489 E.17319
G1 X106.356 Y124.894 F9000
G1 F2400
G1 X106.356 Y95.106 E.80382
G1 X113.644 Y95.106 E.19667
G1 X113.644 Y124.894 E.80382
G1 X106.416 Y124.894 E.19505
G1 X105.96 Y125.29 F9000
;TYPE:External perimeter
;WIDTH:0.419999
G1 F1500
G1 X105.96 Y94.71 E.78451
G1 X114.04 Y94.71 E.20729
G1 X114.04 Y125.29 E.78451
G1 X106.02 Y125.29 E.20575
G1 X105.994 Y124.891 F9000
G1 E-3.5 F3600
;WIPE_START
G1 F7200
G1 X106.014 Y122.132 E-1.5
;WIPE_END
G1 X107.184 Y95.857 F9000
G1 E5 F2400
;TYPE:Solid infill
;WIDTH:0.538422
G1 X107.139 Y95.812 E.00213
G1 X107.078 Y95.828 E.00211
G1 X107.062 Y95.889 E.00211
G1 X107.107 Y95.934 E.00213
G1 X107.167 Y95.917 E.00209
;WIDTH:0.439999
G1 X107.815 Y95.824 E.01767
G1 X107.008 Y96.638 E.03093
;WIDTH:0.407168
G1 X106.942 Y96.71 E.00242
;WIDTH:0.374336
G1 X106.871 Y96.691 E.00166
G1 X106.89 Y96.762 E.00166
G1 X106.931 Y96.751 E.00096
;WIDTH:0.439999
G1 X107.074 Y97.139 E.01116
G1 X108.389 Y95.824 E.05018
G1 X108.963 Y95.824 E.01549
G1 X107.074 Y97.713 E.07209
G1 X107.074 Y98.286 E.01546
G1 X109.536 Y95.824 E.09396
G1 X110.11 Y95.824 E.01549
G1 X107.074 Y98.86 E.11586
G1 X107.074 Y99.434 E.01549
G1 X110.684 Y95.824 E.13777
G1 X111.258 Y95.824 E.01549
G1 X107.074 Y100.008 E.15967
G1 X107.074 Y100.581 E.01546
G1 X111.831 Y95.824 E.18154
G1 X112.405 Y95.824 E.01549
G1 X107.074 Y101.155 E.20344
G1 X107.074 Y101.729 E.01549
G1 X112.926 Y95.876 E.22334
G1 X113 Y95.776 E.00336
;WIDTH:0.407168
G1 X113.073 Y95.677 E.00305
;WIDTH:0.374336
G1 X112.963 Y95.671 E.00249
;WIDTH:0.439999
G1 X112.926 Y96.45 E.02104
G1 X107.074 Y102.302 E.22333
G1 X107.074 Y102.876 E.01549
G1 X112.926 Y97.023 E.22334
G1 X112.926 Y97.597 E.01549
G1 X107.074 Y103.45 E.22334
G1 X107.074 Y104.023 E.01546
G1 X112.926 Y98.171 E.22333
G1 X112.926 Y98.745 E.01549
G1 X107.074 Y104.597 E.22333
G1 X107.074 Y105.171 E.01549
G1 X112.926 Y99.318 E.22334
G1 X112.926 Y99.892 E.01549
G1 X107.074 Y105.745 E.22334
G1 X107.074 Y106.318 E.01546
G1 X112.926 Y100.466 E.22333
G1 X112.926 Y101.039 E.01546
G1 X107.074 Y106.892 E.22334
G1 X107.074 Y107.466 E.01549
G1 X112.926 Y101.613 E.22334
G1 X112.926 Y102.187 E.01549
G1 X107.074 Y108.039 E.22333
G1 X107.074 Y108.613 E.01549
G1 X112.926 Y102.76 E.22334
G1 X112.926 Y103.334 E.01549
G1 X107.074 Y109.187 E.22334
G1 X107.074 Y109.76 E.01546
G1 X112.926 Y103.908 E.22333
G1 X112.926 Y104.481 E.01546
G1 X107.074 Y110.334 E.22334
G1 X107.074 Y110.908 E.01549
G1 X112.926 Y105.055 E.22334
G1 X112.926 Y105.629 E.01549
G1 X107.074 Y111.481 E.22333
G1 X107.074 Y112.055 E.01549
G1 X112.926 Y106.203 E.22333
G1 X112.926 Y106.776 E.01546
G1 X107.074 Y112.629 E.22334
G1 X107.074 Y113.203 E.01549
G1 X112.926 Y107.35 E.22334
G1 X112.926 Y107.924 E.01549
G1 X107.074 Y113.776 E.22333
G1 X107.074 Y114.35 E.01549
G1 X112.926 Y108.497 E.22334
G1 X112.926 Y109.071 E.01549
G1 X107.074 Y114.924 E.22334
G1 X107.074 Y115.497 E.01546
G1 X112.926 Y109.645 E.22333
G1 X112.926 Y110.218 E.01546
G1 X107.074 Y116.071 E.22334
G1 X107.074 Y116.645 E.01549
G1 X112.926 Y110.792 E.22334
G1 X112.926 Y111.366 E.01549
G1 X107.074 Y117.218 E.22333
G1 X107.074 Y117.792 E.01549
G1 X112.926 Y111.939 E.22334
G1 X112.926 Y112.513 E.01549
G1 X107.074 Y118.366 E.22334
G1 X107.074 Y118.939 E.01546
G1 X112.926 Y113.087 E.22333
G1 X112.926 Y113.661 E.01549
G1 X107.074 Y119.513 E.22333
G1 X107.074 Y120.087 E.01549
G1 X112.926 Y114.234 E.22334
G1 X112.926 Y114.808 E.01549
G1 X107.074 Y120.661 E.22334
G1 X107.074 Y121.234 E.01546
G1 X112.926 Y115.382 E.22333
G1 X112.926 Y115.955 E.01546
G1 X107.074 Y121.808 E.22334
G1 X107.074 Y122.382 E.01549
G1 X112.926 Y116.529 E.22334
G1 X112.926 Y117.103 E.01549
G1 X107.074 Y122.955 E.22333
G1 X107.074 Y123.529 E.01549
G1 X112.926 Y117.676 E.22334
G1 X112.926 Y118.25 E.01549
G1 X107.074 Y124.103 E.22334
G1 X107.005 Y124.208 E.00339
;WIDTH:0.407168
G1 X106.937 Y124.313 E.0031
;WIDTH:0.374336
G1 X107.143 Y124.329 E.00467
;WIDTH:0.439999
G1 X107.574 Y124.176 E.01234
G1 X112.926 Y118.824 E.20424
G1 X112.926 Y119.397 E.01546
G1 X108.147 Y124.176 E.18238
G1 X108.721 Y124.176 E.01549
G1 X112.926 Y119.971 E.16047
G1 X112.926 Y120.545 E.01549
G1 X109.295 Y124.176 E.13857
G1 X109.869 Y124.176 E.01549
G1 X112.926 Y121.119 E.11666
G1 X112.926 Y121.692 E.01546
G1 X110.442 Y124.176 E.0948
G1 X111.016 Y124.176 E.01549
G1 X112.926 Y122.266 E.07289
G1 X112.926 Y122.84 E.01549
G1 X111.59 Y124.176 E.05098
G1 X112.163 Y124.176 E.01546
G1 X112.926 Y123.413 E.02912
G1 X112.933 Y124.104 E.01865
;WIDTH:0.550868
G1 X112.888 Y124.059 E.00219
G1 X112.825 Y124.075 E.00223
G1 X112.809 Y124.138 E.00223
G1 X112.854 Y124.183 E.00219
G1 X112.917 Y124.167 E.00223
; stop printing object LOLIN C3 Mini Holder.stl id:0 copy 0
;LAYER_CHANGE
;Z:0.52
;HEIGHT:0.16
;BEFORE_LAYER_CHANGE
G92 E0
;0.52


G1 E-3.5 F3600
;WIPE_START
G1 F7200
G1 X112.854 Y124.183 E-.03088
G1 X112.809 Y124.138 E-.03023
G1 X112.825 Y124.075 E-.03088
G1 X112.888 Y124.059 E-.03088
G1 X112.933 Y124.104 E-.03023
G1 X112.926 Y123.413 E-.32824
G1 X112.163 Y124.176 E-.51255
G1 X111.59 Y124.176 E-.27217
G1 X111.938 Y123.828 E-.23394
;WIPE_END
G1 Z.52 F9000
;AFTER_LAYER_CHANGE
;0.52
; printing object LOLIN C3 Mini Holder.stl id:0 copy 0
G1 X113.239 Y124.489
G1 E5 F2400
;TYPE:Perimeter
;WIDTH:0.439999
G1 F2199
G1 X106.761 Y124.489 E.17481
G1 X106.761 Y95.511 E.78197
G1 X113.239 Y95.511 E.17481
G1 X113.239 Y124.429 E.78035
G1 X113.644 Y124.894 F9000
G1 F2199
G1 X106.356 Y124.894 E.19667
G1 X106.356 Y95.106 E.80382
G1 X113.644 Y95.106 E.19667
G1 X113.644 Y124.834 E.8022
G1 X114.04 Y125.29 F9000
;TYPE:External perimeter
;WIDTH:0.419999
G1 F1500
G1 X105.96 Y125.29 E.20729
G1 X105.96 Y94.71 E.78451
G1 X114.04 Y94.71 E.20729
G1 X114.04 Y125.23 E.78297
G1 X113.678 Y125.121 F9000
G1 E-3.5 F3600
;WIPE_START
G1 F7200
G1 X110.882 Y125.253 E-1.5
;WIPE_END
G1 X107.107 Y124.066 F9000
G1 E5 F2400
;TYPE:Solid infill
;WIDTH:0.538422
G1 F2199
G1 X107.062 Y124.111 E.00213
G1 X107.078 Y124.172 E.00211
G1 X107.139 Y124.188 E.00211
G1 X107.184 Y124.143 E.00213
G1 X107.167 Y124.083 E.00209
;WIDTH:0.439999
G1 X107.815 Y124.176 E.01767
G1 X107.074 Y123.435 E.02828
G1 X107.002 Y123.342 E.00317
;WIDTH:0.407168
G1 X106.931 Y123.249 E.0029
;WIDTH:0.374336
G1 X106.942 Y123.29 E.00096
G1 X106.871 Y123.309 E.00166
G1 X106.89 Y123.238 E.00166
;WIDTH:0.439999
G1 X107.074 Y122.861 E.01132
G1 X108.389 Y124.176 E.05018
G1 X108.963 Y124.176 E.01549
G1 X107.074 Y122.287 E.07209
G1 X107.074 Y121.714 E.01546
G1 X109.536 Y124.176 E.09396
G1 X110.11 Y124.176 E.01549
G1 X107.074 Y121.14 E.11586
G1 X107.074 Y120.566 E.01549
G1 X110.684 Y124.176 E.13777
G1 X111.258 Y124.176 E.01549
G1 X107.074 Y119.992 E.15967
G1 X107.074 Y119.419 E.01546
G1 X111.831 Y124.176 E.18154
G1 X112.405 Y124.176 E.01549
G1 X107.074 Y118.845 E.20344
G1 X107.074 Y118.271 E.01549
G1 X112.926 Y124.124 E.22334
G1 X112.945 Y124.226 E.0028
;WIDTH:0.407168
G1 X112.963 Y124.329 E.00259
;WIDTH:0.374336
G1 X113.073 Y124.323 E.00249
;WIDTH:0.439999
G1 X112.926 Y123.55 E.02123
G1 X107.074 Y117.698 E.22333
G1 X107.074 Y117.124 E.01549
G1 X112.926 Y122.977 E.22334
G1 X112.926 Y122.403 E.01549
G1 X107.074 Y116.55 E.22334
G1 X107.074 Y115.977 E.01546
G1 X112.926 Y121.829 E.22333
G1 X112.926 Y121.256 E.01546
G1 X107.074 Y115.403 E.22334
G1 X107.074 Y114.829 E.01549
G1 X112.926 Y120.682 E.22334
G1 X112.926 Y120.108 E.01549
G1 X107.074 Y114.255 E.22334
G1 X107.074 Y113.682 E.01546
