; generated by PrusaSlicer 2.6.1+win64 on 2023-11-03 at 16:11:48 UTC

; 

; external perimeters extrusion width = 0.42mm
; perimeters extrusion width = 0.44mm
; infill extrusion width = 0.44mm
; solid infill extrusion width = 0.44mm
; top infill extrusion width = 0.40mm
; first layer extrusion width = 0.42mm

M201 X500 Y500 Z100 E5000 ; sets maximum accelerations, mm/sec^2
M203 X500 Y500 Z10 E60 ; sets maximum feedrates, mm / sec
M204 S500 T1000 ; sets acceleration (S) and retract acceleration (R), mm/sec^2
M205 X8.00 Y8.00 Z0.40 E5.00 ; sets the jerk limits, mm/sec
M205 S0 T0 ; sets the minimum extruding and travel feed rate, mm/sec
;TYPE:Custom
G90 ; use absolute coordinates
M83 ; extruder relative mode
M104 S150 ; set temporary nozzle temp to prevent oozing during homing
M140 S60 ; set final bed temp
G4 S30 ; allow partial nozzle warmup
G28 ; home all axis
G1 Z50 F240
G1 X2.0 Y10 F3000
M104 S205 ; set final nozzle temp
M190 S60 ; wait for bed temp to stabilize
M109 S205 ; wait for nozzle temp to stabilize
G1 Z0.28 F240
G92 E0
G1 X2.0 Y140 E10 F1500 ; prime the nozzle
G1 X2.3 Y140 F5000
G92 E0
G1 X2.3 Y10 E10 F1200 ; prime the nozzle
G92 E0
G21 ; set units to millimeters
G90 ; use absolute coordinates
M83 ; use relative distances for extrusion
; Filament gcode
M107
;LAYER_CHANGE
;Z:0.2
;HEIGHT:0.2
;BEFORE_LAYER_CHANGE
G92 E0
;0.2


G1 E-5 F3600
G1 Z.2 F9000
;AFTER_LAYER_CHANGE
;0.2
G1 X78.097 Y77.009
G1 E5 F2400
M204 S500
;TYPE:Skirt/Brim
;WIDTH:0.42
G1 F1200
G1 X81.501 Y74.03 E.14183
G1 X85.486 Y71.208 E.1531
G1 X89.748 Y68.825 E.1531
G1 X94.239 Y66.909 E.15309
G1 X98.909 Y65.481 E.15312
G1 X103.703 Y64.557 E.15308
G1 X108.569 Y64.149 E.15311
G1 X113.323 Y64.256 E.1491
G1 X118.646 Y64.955 E.16833
G1 X123.385 Y66.133 E.15311
G1 X127.972 Y67.807 E.1531
G1 X132.355 Y69.96 E.15311
G1 X136.484 Y72.566 E.15309
G1 X140.042 Y75.36 E.14184
G1 X143.554 Y78.752 E.15309
G1 X146.685 Y82.499 E.1531
G1 X149.4 Y86.557 E.15309
G1 X151.669 Y90.881 E.15311
G1 X153.464 Y95.422 E.1531
G1 X154.768 Y100.128 E.15311
G1 X155.563 Y104.945 E.15308
G1 X155.842 Y110.18 E.16437
G1 X155.601 Y114.697 E.14183
G1 X154.844 Y119.521 E.1531
G1 X153.577 Y124.237 E.15311
G1 X151.817 Y128.791 E.15308
G1 X149.583 Y133.133 E.1531
G1 X146.899 Y137.212 E.1531
G1 X143.798 Y140.984 E.1531
G1 X140.313 Y144.404 E.1531
G1 X136.19 Y147.641 E.16436
G1 X132.04 Y150.214 E.1531
G1 X127.641 Y152.333 E.1531
G1 X123.041 Y153.971 E.1531
G1 X118.293 Y155.111 E.1531
G1 X113.451 Y155.74 E.15309
G1 X108.569 Y155.851 E.15311
G1 X103.703 Y155.443 E.15311
G1 X98.909 Y154.519 E.15308
G1 X94.577 Y153.213 E.14187
G1 X90.071 Y151.332 E.1531
G1 X85.791 Y148.983 E.15308
G1 X81.784 Y146.192 E.15311
G1 X78.097 Y142.991 E.15309
G1 X74.796 Y139.444 E.15192
G1 X71.645 Y135.208 E.16553
G1 X69.182 Y130.992 E.15309
G1 X67.182 Y126.537 E.15311
G1 X65.666 Y121.896 E.15308
G1 X64.71 Y117.474 E.14185
G1 X64.172 Y112.621 E.15309
G1 X64.153 Y107.738 E.1531
G1 X64.653 Y102.881 E.15309
G1 X65.666 Y98.104 E.15311
G1 X67.182 Y93.463 E.15308
G1 X69.182 Y89.008 E.15311
G1 X71.843 Y84.492 E.16435
G1 X74.771 Y80.584 E.15311
G1 X78.056 Y77.053 E.15121
; printing object Reservoir Cap.stl id:0 copy 0
G1 E-3.5 F3600
;WIPE_START
G1 F7200
G1 X80.43 Y74.97 E-1.5
;WIPE_END
G1 X81.064 Y80.314 F9000
G1 E5 F2400
;TYPE:Perimeter
;WIDTH:0.419999
G1 F1200
G1 X84.383 Y77.41 E.13828
G1 X87.992 Y74.875 E.13828
G1 X91.85 Y72.738 E.13828
G1 X95.914 Y71.023 E.1383
G1 X100.136 Y69.749 E.13827
G1 X104.47 Y68.932 E.13828
G1 X108.867 Y68.58 E.13831
G1 X113.276 Y68.698 E.13829
G1 X117.647 Y69.283 E.13827
G1 X121.932 Y70.33 E.13831
G1 X126.081 Y71.826 E.13829
G1 X130.047 Y73.755 E.13828
G1 X133.786 Y76.094 E.13828
G1 X137.255 Y78.818 E.13829
G1 X140.415 Y81.895 E.13829
G1 X143.23 Y85.29 E.13828
G1 X145.668 Y88.965 E.13828
G1 X147.701 Y92.879 E.13829
G1 X149.308 Y96.986 E.13828
G1 X150.468 Y101.242 E.13831
G1 X151.169 Y105.596 E.13827
G1 X151.404 Y110 E.13828
G1 X151.169 Y114.404 E.13828
G1 X150.468 Y118.758 E.13827
G1 X149.308 Y123.014 E.13831
G1 X147.701 Y127.121 E.13828
G1 X145.668 Y131.035 E.13829
G1 X143.23 Y134.71 E.13828
G1 X140.415 Y138.105 E.13828
G1 X137.255 Y141.182 E.13829
G1 X133.786 Y143.906 E.13829
G1 X130.047 Y146.245 E.13828
G1 X126.081 Y148.174 E.13828
G1 X121.932 Y149.67 E.13829
G1 X117.647 Y150.717 E.13831
G1 X113.276 Y151.302 E.13827
G1 X108.867 Y151.42 E.13829
G1 X104.47 Y151.068 E.13831
G1 X100.136 Y150.251 E.13828
G1 X95.914 Y148.977 E.13827
G1 X91.85 Y147.262 E.1383
G1 X87.992 Y145.125 E.13828
G1 X84.383 Y142.59 E.13828
G1 X81.064 Y139.686 E.13828
G1 X78.094 Y136.469 E.13728
G1 X75.442 Y132.905 E.13929
G1 X73.203 Y129.105 E.13829
G1 X71.381 Y125.089 E.13827
G1 X69.995 Y120.901 E.13832
G1 X69.063 Y116.591 E.13826
G1 X68.594 Y112.205 E.1383
G1 X68.594 Y107.795 E.13827
G1 X69.063 Y103.409 E.1383
G1 X69.995 Y99.099 E.13826
G1 X71.381 Y94.911 E.13832
G1 X73.203 Y90.895 E.13827
G1 X75.442 Y87.095 E.13829
G1 X78.072 Y83.555 E.13827
G1 X81.023 Y80.358 E.13642
G1 X80.801 Y80.044 F9000
G1 F1200
G1 X84.15 Y77.113 E.13954
G1 X87.792 Y74.555 E.13954
G1 X91.685 Y72.398 E.13955
G1 X95.786 Y70.667 E.13957
G1 X100.047 Y69.383 E.13953
G1 X104.42 Y68.558 E.13953
G1 X108.857 Y68.203 E.13956
G1 X113.306 Y68.321 E.13954
G1 X117.717 Y68.912 E.13954
G1 X122.041 Y69.968 E.13956
G1 X126.227 Y71.478 E.13953
G1 X130.23 Y73.424 E.13956
G1 X134.003 Y75.785 E.13955
G1 X137.504 Y78.534 E.13957
G1 X140.692 Y81.638 E.13951
G1 X143.533 Y85.065 E.13957
G1 X145.993 Y88.774 E.13955
G1 X148.045 Y92.723 E.13954
G1 X149.666 Y96.868 E.13955
G1 X150.837 Y101.162 E.13955
G1 X151.545 Y105.556 E.13955
G1 X151.782 Y110 E.13954
G1 X151.545 Y114.444 E.13954
G1 X150.837 Y118.838 E.13955
G1 X149.666 Y123.132 E.13955
G1 X148.045 Y127.277 E.13955
G1 X145.993 Y131.226 E.13954
G1 X143.533 Y134.935 E.13955
G1 X140.692 Y138.362 E.13957
G1 X137.504 Y141.466 E.13951
G1 X134.003 Y144.215 E.13957
G1 X130.23 Y146.576 E.13955
G1 X126.227 Y148.522 E.13956
G1 X122.041 Y150.032 E.13953
G1 X117.717 Y151.088 E.13956
G1 X113.306 Y151.679 E.13954
G1 X108.857 Y151.797 E.13954
G1 X104.42 Y151.442 E.13956
G1 X100.047 Y150.617 E.13953
G1 X95.786 Y149.333 E.13953
G1 X91.685 Y147.602 E.13957
G1 X87.792 Y145.445 E.13955
G1 X84.15 Y142.887 E.13954
G1 X80.801 Y139.956 E.13954
G1 X77.803 Y136.71 E.13854
G1 X75.127 Y133.113 E.14057
G1 X72.868 Y129.279 E.13953
G1 X71.029 Y125.226 E.13955
G1 X69.631 Y121.001 E.13954
G1 X68.69 Y116.651 E.13955
G1 X68.217 Y112.225 E.13956
G1 X68.217 Y107.775 E.13953
G1 X68.69 Y103.349 E.13956
G1 X69.631 Y98.999 E.13955
G1 X71.029 Y94.774 E.13954
G1 X72.868 Y90.721 E.13955
G1 X75.127 Y86.886 E.13955
G1 X77.782 Y83.314 E.13955
G1 X80.76 Y80.088 E.13766
G1 X80.537 Y79.773 F9000
;TYPE:External perimeter
G1 F1200
G1 X83.917 Y76.816 E.14081
G1 X87.592 Y74.234 E.14082
G1 X91.52 Y72.058 E.14079
G1 X95.658 Y70.312 E.14082
G1 X99.957 Y69.016 E.14078
G1 X104.37 Y68.184 E.1408
G1 X108.847 Y67.825 E.14082
G1 X113.336 Y67.945 E.1408
G1 X117.787 Y68.541 E.1408
G1 X122.15 Y69.607 E.14082
G1 X126.374 Y71.13 E.14079
G1 X130.413 Y73.094 E.14082
G1 X134.22 Y75.476 E.14081
G1 X137.752 Y78.249 E.1408
G1 X140.97 Y81.382 E.14082
G1 X143.836 Y84.84 E.14082
G1 X146.318 Y88.582 E.14079
G1 X148.389 Y92.567 E.14081
G1 X150.025 Y96.749 E.1408
G1 X151.206 Y101.082 E.14081
G1 X151.92 Y105.516 E.14082
G1 X152.159 Y110 E.14079
G1 X151.92 Y114.484 E.14079
G1 X151.206 Y118.918 E.14082
G1 X150.025 Y123.251 E.14081
G1 X148.389 Y127.433 E.1408
G1 X146.318 Y131.418 E.14081
G1 X143.836 Y135.16 E.14079
G1 X140.97 Y138.618 E.14082
G1 X137.752 Y141.751 E.14082
G1 X134.22 Y144.524 E.1408
G1 X130.413 Y146.906 E.14081
G1 X126.374 Y148.87 E.14082
G1 X122.15 Y150.393 E.14079
G1 X117.787 Y151.459 E.14082
G1 X113.336 Y152.055 E.1408
G1 X108.847 Y152.175 E.1408
G1 X104.37 Y151.816 E.14082
G1 X99.957 Y150.984 E.1408
G1 X95.658 Y149.688 E.14078
G1 X91.52 Y147.942 E.14082
G1 X87.592 Y145.766 E.14079
G1 X83.917 Y143.184 E.14082
G1 X80.537 Y140.227 E.14081
G1 X77.513 Y136.951 E.13979
G1 X74.813 Y133.322 E.14182
G1 X72.533 Y129.453 E.14081
G1 X70.677 Y125.364 E.1408
G1 X69.267 Y121.1 E.14081
G1 X68.317 Y116.711 E.1408
G1 X67.84 Y112.245 E.14082
G1 X67.84 Y107.755 E.14078
G1 X68.317 Y103.289 E.14082
G1 X69.267 Y98.9 E.1408
G1 X70.677 Y94.636 E.14081
G1 X72.533 Y90.547 E.1408
G1 X74.813 Y86.678 E.14081
G1 X77.491 Y83.073 E.14081
G1 X80.496 Y79.817 E.13892
G1 X80.922 Y79.882 F9000
G1 E-3.5 F3600
;WIPE_START
G1 F7200
G1 X82.87 Y77.735 E-1.5
;WIPE_END
G1 X132.848 Y131.291 F9000
G1 E5 F2400
;TYPE:Perimeter
G1 F1200
G1 X132.794 Y131.43 E.00468
G1 X132.094 Y132.327 E.03568
G1 X131.887 Y132.519 E.00885
G1 X130.874 Y133.018 E.03541
G1 X130.566 Y133.106 E.01004
G1 X129.475 Y133.112 E.03421
G1 X129.18 Y133.064 E.00937
G1 X128.216 Y132.609 E.03342
G1 X128.008 Y132.486 E.00758
G1 X127.198 Y131.512 E.03972
G1 X127.047 Y131.175 E.01158
G1 X126.826 Y130.21 E.03104
G1 X126.807 Y129.908 E.00949
G1 X127.047 Y128.825 E.03478
G1 X127.229 Y128.447 E.01315
G1 X127.846 Y127.673 E.03104
G1 X128.174 Y127.411 E.01316
G1 X129.066 Y126.982 E.03103
G1 X129.434 Y126.889 E.0119
G1 X130.465 Y126.888 E.03233
G1 X130.796 Y126.949 E.01055
G1 X131.766 Y127.411 E.03369
G1 X132.043 Y127.614 E.01077
G1 X132.711 Y128.447 E.03348
G1 X132.867 Y128.732 E.01019
G1 X133.114 Y129.79 E.03406
G1 X133.133 Y130.085 E.00927
G1 X132.87 Y131.235 E.03699
G1 X132.49 Y131.165 F9000
G1 F1200
G1 X132.416 Y131.318 E.00533
G1 X131.799 Y132.092 E.03104
G1 X131.602 Y132.249 E.0079
G1 X130.71 Y132.678 E.03103
G1 X130.465 Y132.734 E.00788
G1 X129.475 Y132.734 E.03104
G1 X129.229 Y132.678 E.00791
G1 X128.337 Y132.249 E.03103
G1 X128.141 Y132.092 E.00787
G1 X127.523 Y131.318 E.03105
G1 X127.414 Y131.091 E.0079
G1 X127.194 Y130.126 E.03103
G1 X127.194 Y129.874 E.0079
G1 X127.414 Y128.909 E.03103
G1 X127.523 Y128.682 E.0079
G1 X128.141 Y127.908 E.03105
G1 X128.379 Y127.731 E.0093
G1 X129.229 Y127.322 E.02958
G1 X129.475 Y127.266 E.00791
G1 X130.47 Y127.266 E.0312
G1 X130.71 Y127.322 E.00773
G1 X131.602 Y127.751 E.03103
G1 X131.799 Y127.908 E.0079
G1 X132.416 Y128.682 E.03104
G1 X132.526 Y128.909 E.00791
G1 X132.746 Y129.874 E.03103
G1 X132.746 Y130.126 E.0079
G1 X132.516 Y131.111 E.03171
G1 X132.158 Y131.007 F9000
;TYPE:External perimeter
G1 F1200
G1 X131.504 Y131.857 E.03363
G1 X130.547 Y132.339 E.0336
G1 X129.475 Y132.357 E.03362
G1 X128.543 Y131.929 E.03216
G1 X128.435 Y131.857 E.00407
G1 X127.818 Y131.083 E.03104
G1 X127.561 Y130.042 E.03362
G1 X127.782 Y128.993 E.03361
G1 X128.435 Y128.143 E.03361
G1 X129.393 Y127.661 E.03362
G1 X130.465 Y127.643 E.03362
G1 X131.439 Y128.091 E.03361
G1 X132.122 Y128.917 E.03361
G1 X132.378 Y129.958 E.03361
G1 X132.17 Y130.948 E.03172
G1 X132.389 Y131.334 F9000
G1 E-3.5 F3600
;WIPE_START
G1 F7200
G1 X131.504 Y131.857 E-.53526
G1 X130.547 Y132.339 E-.50898
G1 X129.588 Y132.355 E-.45576
;WIPE_END
G1 X123.523 Y130.024 F9000
G1 E5 F2400
;TYPE:Perimeter
G1 F1200
G1 X123.288 Y132.555 E.0797
G1 X123.1 Y133.237 E.02218
G1 X122.533 Y135.104 E.06118
G1 X121.296 Y137.457 E.08335
G1 X121.193 Y137.61 E.00578
G1 X119.624 Y139.523 E.07757
G1 X119.493 Y139.654 E.00581
G1 X117.58 Y141.224 E.07759
G1 X117.427 Y141.326 E.00577
G1 X115.245 Y142.493 E.07759
G1 X115.074 Y142.563 E.00579
G1 X112.706 Y143.282 E.07759
G1 X112.525 Y143.318 E.00579
G1 X110.062 Y143.56 E.0776
G1 X109.361 Y143.509 E.02204
G1 X107.415 Y143.318 E.06131
G1 X107.234 Y143.282 E.00579
G1 X104.866 Y142.563 E.07759
G1 X104.695 Y142.493 E.00579
G1 X102.513 Y141.326 E.07759
G1 X102.359 Y141.224 E.00579
G1 X100.447 Y139.654 E.07757
G1 X100.316 Y139.523 E.00581
G1 X98.746 Y137.61 E.07759
G1 X98.644 Y137.457 E.00577
G1 X97.477 Y135.275 E.07759
G1 X96.688 Y132.736 E.08336
G1 X96.652 Y132.555 E.00579
G1 X96.41 Y130.092 E.0776
G1 X96.442 Y129.58 E.01608
G1 X96.652 Y127.445 E.06726
G1 X96.84 Y126.763 E.02218
G1 X97.407 Y124.896 E.06118
G1 X98.644 Y122.543 E.08335
G1 X100.316 Y120.477 E.08333
G1 X100.447 Y120.346 E.00581
G1 X102.359 Y118.776 E.07757
G1 X104.695 Y117.507 E.08335
G1 X107.234 Y116.718 E.08336
G1 X109.877 Y116.44 E.08333
G1 X110.698 Y116.502 E.02582
G1 X112.525 Y116.682 E.05756
G1 X115.074 Y117.437 E.08335
G1 X117.427 Y118.674 E.08335
G1 X117.58 Y118.776 E.00577
G1 X119.493 Y120.346 E.07759
G1 X121.193 Y122.39 E.08336
G1 X122.463 Y124.725 E.08334
G1 X123.252 Y127.264 E.08336
G1 X123.288 Y127.445 E.00579
G1 X123.527 Y129.964 E.07934
G1 X123.149 Y130.012 F9000
G1 F1200
G1 X122.912 Y132.518 E.07892
G1 X122.172 Y134.994 E.08103
G1 X120.964 Y137.279 E.08104
G1 X119.332 Y139.284 E.08106
G1 X117.341 Y140.932 E.08104
G1 X115.067 Y142.16 E.08103
G1 X112.597 Y142.921 E.08104
G1 X110.025 Y143.185 E.08107
G1 X107.452 Y142.942 E.08103
G1 X104.975 Y142.203 E.08105
G1 X102.691 Y140.994 E.08103
G1 X100.686 Y139.362 E.08106
G1 X99.038 Y137.371 E.08104
G1 X97.81 Y135.097 E.08103
G1 X97.049 Y132.627 E.08104
G1 X96.785 Y130.055 E.08107
G1 X97.027 Y127.482 E.08103
G1 X97.767 Y125.006 E.08103
G1 X98.976 Y122.721 E.08105
G1 X100.608 Y120.716 E.08106
G1 X102.599 Y119.068 E.08104
G1 X104.873 Y117.84 E.08103
G1 X107.343 Y117.079 E.08104
G1 X109.914 Y116.815 E.08104
G1 X112.488 Y117.058 E.08106
G1 X114.964 Y117.797 E.08102
G1 X117.249 Y119.006 E.08105
G1 X119.254 Y120.638 E.08106
G1 X120.905 Y122.633 E.08119
G1 X122.13 Y124.903 E.08088
G1 X122.891 Y127.373 E.08104
G1 X123.154 Y129.953 E.08131
G1 X122.78 Y129.984 F9000
;TYPE:External perimeter
G1 F1200
G1 X122.537 Y132.481 E.07866
G1 X121.812 Y134.885 E.07873
G1 X120.63 Y137.104 E.07883
G1 X119.041 Y139.045 E.07865
G1 X117.102 Y140.641 E.07874
G1 X114.889 Y141.828 E.07874
G1 X112.487 Y142.56 E.07873
G1 X109.988 Y142.81 E.07875
G1 X107.489 Y142.567 E.07872
G1 X105.085 Y141.842 E.07873
G1 X102.869 Y140.661 E.07873
G1 X100.925 Y139.071 E.07874
G1 X99.329 Y137.132 E.07874
G1 X98.142 Y134.919 E.07874
G1 X97.41 Y132.517 E.07873
G1 X97.16 Y130.016 E.07881
G1 X97.403 Y127.519 E.07866
G1 X98.128 Y125.115 E.07873
G1 X99.309 Y122.899 E.07873
G1 X100.899 Y120.955 E.07874
G1 X102.838 Y119.359 E.07874
G1 X105.051 Y118.172 E.07874
G1 X107.453 Y117.44 E.07873
G1 X109.951 Y117.19 E.07871
G1 X112.451 Y117.433 E.07876
G1 X114.855 Y118.158 E.07873
G1 X117.071 Y119.339 E.07873
G1 X119.015 Y120.929 E.07874
G1 X120.613 Y122.871 E.07885
G1 X121.797 Y125.081 E.07861
G1 X122.53 Y127.483 E.07874
G1 X122.774 Y129.924 E.07692
G1 X123.126 Y130.183 F9000
G1 E-3.5 F3600
;WIPE_START
G1 F7200
G1 X122.537 Y132.481 E-1.21978
G1 X122.367 Y133.046 E-.28022
;WIPE_END
G1 X89.356 Y133.095 F9000
G1 E5 F2400
;TYPE:Perimeter
G1 F1200
G1 X89.219 Y133.076 E.00434
G1 X88.174 Y132.589 E.03615
G1 X87.89 Y132.379 E.01107
G1 X87.229 Y131.553 E.03317
G1 X87.081 Y131.291 E.00943
G1 X86.826 Y130.21 E.03482
G1 X86.805 Y129.93 E.0088
G1 X87.047 Y128.825 E.03547
G1 X87.183 Y128.509 E.01079
G1 X87.846 Y127.673 E.03345
G1 X88.132 Y127.433 E.01171
G1 X89.028 Y127 E.0312
G1 X89.361 Y126.895 E.01095
G1 X90.465 Y126.888 E.03462
G1 X90.743 Y126.93 E.00882
G1 X91.724 Y127.391 E.03399
G1 X91.932 Y127.514 E.00758
G1 X92.742 Y128.488 E.03972
G1 X92.893 Y128.825 E.01158
G1 X93.114 Y129.79 E.03104
G1 X93.133 Y130.092 E.00949
G1 X92.893 Y131.175 E.03478
G1 X92.711 Y131.553 E.01315
G1 X92.094 Y132.327 E.03104
G1 X91.766 Y132.589 E.01316
G1 X90.874 Y133.018 E.03103
G1 X90.591 Y133.103 E.00926
G1 X89.415 Y133.103 E.03687
G1 X89.395 Y132.716 F9000
G1 F1200
G1 X89.229 Y132.678 E.00534
G1 X88.337 Y132.249 E.03103
G1 X88.141 Y132.092 E.00787
G1 X87.523 Y131.318 E.03105
G1 X87.414 Y131.091 E.0079
G1 X87.194 Y130.126 E.03103
G1 X87.194 Y129.874 E.0079
G1 X87.414 Y128.909 E.03103
G1 X87.523 Y128.682 E.0079
G1 X88.141 Y127.908 E.03105
G1 X88.337 Y127.751 E.00787
G1 X89.229 Y127.322 E.03103
G1 X89.475 Y127.266 E.00791
G1 X90.465 Y127.266 E.03104
G1 X90.698 Y127.316 E.00747
G1 X91.56 Y127.731 E.03
G1 X91.799 Y127.908 E.00932
G1 X92.416 Y128.682 E.03104
G1 X92.526 Y128.909 E.00791
G1 X92.746 Y129.874 E.03103
G1 X92.746 Y130.126 E.0079
G1 X92.526 Y131.091 E.03103
G1 X92.416 Y131.318 E.00791
G1 X91.799 Y132.092 E.03104
G1 X91.56 Y132.269 E.00932
G1 X90.71 Y132.678 E.02958
G1 X90.465 Y132.734 E.00788
G1 X89.454 Y132.73 E.0317
