; generated by PrusaSlicer 2.6.1+win64 on 2023-11-03 at 16:11:29 UTC

; 

; external perimeters extrusion width = 0.42mm
; perimeters extrusion width = 0.44mm
; infill extrusion width = 0.44mm
; solid infill extrusion width = 0.44mm
; top infill extrusion width = 0.40mm
; support material extrusion width = 0.36mm
; first layer extrusion width = 0.42mm

M201 X500 Y500 Z100 E5000 ; sets maximum accelerations, mm/sec^2
M203 X500 Y500 Z10 E60 ; sets maximum feedrates, mm / sec
M204 S500 T1000 ; sets acceleration (S) and retract acceleration (R), mm/sec^2
M205 X8.00 Y8.00 Z0.40 E5.00 ; sets the jerk limits, mm/sec
M205 S0 T0 ; sets the minimum extruding and travel feed rate, mm/sec
;TYPE:Custom
G90 ; use absolute coordinates
M83 ; extruder relative mode
M104 S150 ; set temporary nozzle temp to prevent oozing during homing
M140 S60 ; set final bed temp
G4 S30 ; allow partial nozzle warmup
G28 ; home all axis
G1 Z50 F240
G1 X2.0 Y10 F3000
M104 S205 ; set final nozzle temp
M190 S60 ; wait for bed temp to stabilize
M109 S205 ; wait for nozzle temp to stabilize
G1 Z0.28 F240
G92 E0
G1 X2.0 Y140 E10 F1500 ; prime the nozzle
G1 X2.3 Y140 F5000
G92 E0
G1 X2.3 Y10 E10 F1200 ; prime the nozzle
G92 E0
G21 ; set units to millimeters
G90 ; use absolute coordinates
M83 ; use relative distances for extrusion
; Filament gcode
M107
;LAYER_CHANGE
;Z:0.2
;HEIGHT:0.2
;BEFORE_LAYER_CHANGE
G92 E0
;0.2


G1 E-5 F3600
G1 Z.2 F9000
;AFTER_LAYER_CHANGE
;0.2
G1 X108.562 Y86.222
G1 E5 F2400
M204 S500
;TYPE:Skirt/Brim
;WIDTH:0.42
G1 F1200
G1 X109.867 Y84.579 E.06579
G1 X111.17 Y83.357 E.05601
G1 X111.84 Y82.895 E.02552
G1 X112.908 Y82.335 E.03781
G1 X113.669 Y82.046 E.02552
G1 X114.839 Y81.758 E.03778
G1 X115.647 Y81.659 E.02552
G1 X116.853 Y81.659 E.03781
G1 X117.661 Y81.758 E.02552
G1 X118.831 Y82.046 E.03778
G1 X119.614 Y82.346 E.02629
G1 X120.66 Y82.895 E.03704
G1 X121.33 Y83.357 E.02552
G1 X122.232 Y84.157 E.0378
G1 X122.772 Y84.766 E.02552
G1 X123.457 Y85.758 E.0378
G1 X123.835 Y86.479 E.02552
G1 X124.262 Y87.606 E.03779
G1 X124.457 Y88.396 E.02551
G1 X128.156 Y119.828 E.99233
G1 X128.179 Y136.656 E.52763
G1 X127.785 Y138.239 E.05115
G1 X127.19 Y139.044 E.03139
G1 X125.873 Y140.361 E.0584
G1 X124.475 Y141.202 E.05115
G1 X123.485 Y141.35 E.03139
G1 X109.686 Y141.35 E.43266
G1 X108.103 Y140.956 E.05115
G1 X107.298 Y140.361 E.03139
G1 X105.981 Y139.044 E.0584
G1 X105.348 Y138.166 E.03394
G1 X103.917 Y135.279 E.10103
G1 X96.542 Y116.888 E.62127
G1 X95.853 Y114.419 E.08037
G1 X95.444 Y111.641 E.08804
G1 X95.443 Y108.375 E.1024
G1 X95.85 Y105.592 E.08819
G1 X96.548 Y103.095 E.08129
G1 X97.576 Y100.674 E.08247
G1 X98.964 Y98.307 E.08603
G1 X108.525 Y86.269 E.48201
; printing object Tube Holder.stl id:0 copy 0
G1 E-3.5 F3600
;WIPE_START
G1 F7200
G1 X109.867 Y84.579 E-1.02506
G1 X110.596 Y83.895 E-.47494
;WIPE_END
G1 X115.583 Y120.222 F9000
G1 E5 F2400
;TYPE:Support material
G1 F1200
G1 X124.802 Y120.222 E.28906
G1 X124.802 Y136.656 E.51528
G1 X123.485 Y136.656 E.04129
G1 X123.485 Y137.973 E.04129
G1 X109.686 Y137.973 E.43266
G1 X109.686 Y136.656 E.04129
G1 X108.369 Y136.656 E.04129
G1 X108.369 Y134.022 E.08259
G1 X107.052 Y134.022 E.04129
G1 X107.052 Y125.404 E.27021
G1 X108.866 Y126.374 E.0645
G1 X111.315 Y127.288 E.08196
G1 X111.712 Y127.012 E.01516
G1 X111.712 Y122.669 E.13617
G1 X111.557 Y122.436 E.00877
G1 X109.579 Y121.491 E.06873
G1 X107.897 Y120.333 E.06403
G1 X107.052 Y119.535 E.03644
G1 X107.052 Y118.905 E.01975
G1 X115.583 Y118.905 E.26748
G1 X115.583 Y120.166 E.03954
G1 X124.245 Y136.486 F9000
G1 F1200
G1 X124.245 Y120.562 E.49929
G1 X123.826 Y120.562 E.01314
G1 X123.826 Y136.317 E.49399
G1 X123.407 Y136.317 E.01314
G1 X123.407 Y120.562 E.49399
G1 X122.988 Y120.562 E.01314
G1 X122.988 Y137.634 E.53528
G1 X122.569 Y137.634 E.01314
G1 X122.569 Y120.562 E.53528
G1 X122.15 Y120.562 E.01314
G1 X122.15 Y137.634 E.53528
G1 X121.731 Y137.634 E.01314
G1 X121.731 Y120.562 E.53528
G1 X121.312 Y120.562 E.01314
G1 X121.312 Y137.634 E.53528
G1 X120.893 Y137.634 E.01314
G1 X120.893 Y120.562 E.53528
G1 X120.474 Y120.562 E.01314
G1 X120.474 Y137.634 E.53528
G1 X120.055 Y137.634 E.01314
G1 X120.055 Y120.562 E.53528
G1 X119.636 Y120.562 E.01314
G1 X119.636 Y137.634 E.53528
G1 X119.217 Y137.634 E.01314
G1 X119.217 Y120.562 E.53528
G1 X118.799 Y120.562 E.01311
G1 X118.799 Y137.634 E.53528
G1 X118.38 Y137.634 E.01314
G1 X118.38 Y120.562 E.53528
G1 X117.961 Y120.562 E.01314
G1 X117.961 Y137.634 E.53528
G1 X117.542 Y137.634 E.01314
G1 X117.542 Y120.562 E.53528
G1 X117.123 Y120.562 E.01314
G1 X117.123 Y137.634 E.53528
G1 X116.704 Y137.634 E.01314
G1 X116.704 Y120.562 E.53528
G1 X116.285 Y120.562 E.01314
G1 X116.285 Y137.634 E.53528
G1 X115.866 Y137.634 E.01314
G1 X115.866 Y120.562 E.53528
G1 X115.447 Y120.562 E.01314
G1 X115.447 Y137.634 E.53528
G1 X115.028 Y137.634 E.01314
G1 X115.028 Y119.245 E.57657
G1 X114.609 Y119.245 E.01314
G1 X114.609 Y137.634 E.57657
G1 X114.19 Y137.634 E.01314
G1 X114.19 Y119.245 E.57657
G1 X113.771 Y119.245 E.01314
G1 X113.771 Y137.634 E.57657
G1 X113.352 Y137.634 E.01314
G1 X113.352 Y119.245 E.57657
G1 X112.933 Y119.245 E.01314
G1 X112.933 Y137.634 E.57657
G1 X112.514 Y137.634 E.01314
G1 X112.514 Y119.245 E.57657
G1 X112.095 Y119.245 E.01314
G1 X112.095 Y137.634 E.57657
G1 X111.676 Y137.634 E.01314
G1 X111.676 Y127.45 E.31931
G1 X111.363 Y127.668 E.01196
G1 X111.257 Y127.628 E.00355
G1 X111.257 Y137.634 E.31373
G1 X110.838 Y137.634 E.01314
G1 X110.838 Y127.472 E.31862
G1 X110.419 Y127.316 E.01402
G1 X110.419 Y137.634 E.32351
G1 X110.025 Y137.634 E.01235
G1 X110.025 Y136.317 E.04129
G1 X110 Y136.317 E.00078
G1 X110 Y127.159 E.28714
G1 X109.581 Y127.003 E.01402
G1 X109.581 Y136.317 E.29203
G1 X109.162 Y136.317 E.01314
G1 X109.162 Y126.847 E.29693
G1 X108.743 Y126.69 E.01403
G1 X108.743 Y136.317 E.30185
G1 X108.708 Y136.317 E.0011
G1 X108.708 Y133.682 E.08262
G1 X108.324 Y133.682 E.01204
G1 X108.324 Y126.471 E.2261
G1 X107.905 Y126.247 E.0149
G1 X107.905 Y133.682 E.23312
G1 X107.486 Y133.682 E.01314
G1 X107.486 Y125.83 E.24619
G1 E-3.5 F3600
;WIPE_START
G1 F7200
G1 X107.486 Y128.988 E-1.5
;WIPE_END
G1 X111.676 Y122.309 F9000
G1 E5 F2400
G1 F1200
G1 X111.676 Y119.245 E.09607
G1 X111.257 Y119.245 E.01314
G1 X111.257 Y121.923 E.08397
G1 X110.838 Y121.721 E.01458
G1 X110.838 Y119.245 E.07763
G1 X110.419 Y119.245 E.01314
G1 X110.419 Y121.519 E.0713
G1 X110 Y121.317 E.01458
G1 X110 Y119.245 E.06497
G1 X109.581 Y119.245 E.01314
G1 X109.581 Y121.081 E.05757
G1 X109.162 Y120.792 E.01596
G1 X109.162 Y119.245 E.04851
G1 X108.743 Y119.245 E.01314
G1 X108.743 Y120.504 E.03948
G1 X108.324 Y120.215 E.01596
G1 X108.324 Y119.245 E.03041
G1 X107.905 Y119.245 E.01314
G1 X107.905 Y119.874 E.01972
G1 X107.486 Y119.478 E.01808
G1 X107.486 Y119.075 E.01264
G1 E-3.5 F3600
;WIPE_START
G1 F7200
G1 X107.486 Y119.478 E-.19143
G1 X107.905 Y119.874 E-.27385
G1 X107.905 Y119.245 E-.29878
G1 X108.324 Y119.245 E-.19902
G1 X108.324 Y120.215 E-.46075
G1 X108.456 Y120.306 E-.07617
;WIPE_END
G1 X110.186 Y123.477 F9000
G1 E5 F2400
;TYPE:Perimeter
;WIDTH:0.419999
G1 F1200
G1 X110.186 Y125.238 E.05521
G1 X109.481 Y124.974 E.0236
G1 X107.529 Y123.929 E.06942
G1 X105.737 Y122.631 E.06938
G1 X104.11 Y121.072 E.07065
G1 X102.752 Y119.373 E.0682
G1 X101.615 Y117.474 E.0694
G1 X100.742 Y115.437 E.06949
G1 X100.152 Y113.301 E.06948
G1 X99.854 Y111.107 E.06942
G1 X99.854 Y108.893 E.06942
G1 X100.152 Y106.699 E.06942
G1 X100.742 Y104.562 E.06951
G1 X101.615 Y102.526 E.06946
G1 X102.752 Y100.627 E.0694
G1 X104.134 Y98.898 E.0694
G1 X105.736 Y97.37 E.06941
G1 X107.529 Y96.071 E.06942
G1 X109.481 Y95.026 E.06942
G1 X111.701 Y94.197 E.0743
G1 X112.074 Y93.943 E.01415
G1 X112.269 Y93.601 E.01234
G1 X112.314 Y93.314 E.00911
G1 X112.314 Y90.064 E.1019
G1 X112.436 Y89.06 E.03171
G1 X112.772 Y88.175 E.02968
G1 X113.31 Y87.395 E.02971
G1 X114.019 Y86.767 E.0297
G1 X114.857 Y86.327 E.02968
G1 X115.775 Y86.101 E.02964
G1 X116.734 Y86.103 E.03007
G1 X117.643 Y86.327 E.02935
G1 X118.481 Y86.767 E.02968
G1 X119.19 Y87.395 E.0297
G1 X119.701 Y88.135 E.0282
G1 X119.872 Y88.554 E.01419
G1 X120.07 Y89.108 E.01845
G1 X120.186 Y90.088 E.03094
G1 X120.186 Y95.186 E.15984
G1 X116.173 Y95.189 E.12582
G1 X113.911 Y95.374 E.07116
G1 X111.66 Y95.919 E.07262
G1 X110.129 Y96.539 E.05179
G1 X109.602 Y96.764 E.01797
G1 X107.656 Y97.937 E.07124
G1 X105.912 Y99.394 E.07125
G1 X104.471 Y101.021 E.06814
G1 X103.235 Y102.929 E.07128
G1 X102.278 Y105.089 E.07407
G1 X101.68 Y107.331 E.07275
G1 X101.444 Y109.595 E.07137
G1 X101.556 Y111.869 E.07139
G1 X102.016 Y114.099 E.07139
G1 X102.811 Y116.228 E.07126
G1 X103.93 Y118.222 E.07169
G1 X105.365 Y120.041 E.07264
G1 X107.026 Y121.587 E.07115
G1 X108.865 Y122.839 E.06975
G1 X110.132 Y123.451 E.04412
G1 E-3.5 F3600
;WIPE_START
G1 F7200
G1 X110.186 Y125.238 E-.84921
G1 X109.481 Y124.974 E-.35758
G1 X108.937 Y124.683 E-.29321
;WIPE_END
G1 X110.563 Y125.781 F9000
G1 E5 F2400
G1 F1200
G1 X109.325 Y125.319 E.04143
G1 X107.329 Y124.249 E.07101
G1 X105.495 Y122.921 E.071
G1 X103.831 Y121.327 E.07225
G1 X102.441 Y119.589 E.06978
G1 X101.278 Y117.646 E.071
G1 X100.385 Y115.562 E.07109
G1 X99.781 Y113.377 E.07108
G1 X99.477 Y111.133 E.071
G1 X99.477 Y108.867 E.07105
G1 X99.781 Y106.623 E.071
G1 X100.385 Y104.437 E.07111
G1 X101.278 Y102.354 E.07106
G1 X102.441 Y100.411 E.071
G1 X103.856 Y98.642 E.07103
G1 X105.495 Y97.079 E.07101
G1 X107.329 Y95.751 E.071
G1 X109.325 Y94.681 E.07101
G1 X111.569 Y93.844 E.07509
G1 X111.793 Y93.691 E.00851
G1 X111.91 Y93.486 E.0074
G1 X111.937 Y93.314 E.00546
G1 X111.937 Y90.042 E.10259
G1 X112.067 Y88.969 E.03389
G1 X112.436 Y87.998 E.03257
G1 X113.026 Y87.143 E.03257
G1 X113.803 Y86.455 E.03254
G1 X114.722 Y85.972 E.03255
G1 X115.73 Y85.724 E.03255
G1 X116.78 Y85.726 E.03292
G1 X117.778 Y85.972 E.03223
G1 X118.697 Y86.455 E.03255
G1 X119.474 Y87.143 E.03254
G1 X120.011 Y87.921 E.02964
G1 X120.225 Y88.421 E.01705
G1 X120.444 Y89.063 E.02127
G1 X120.563 Y90.088 E.03235
G1 X120.563 Y95.563 E.17166
G1 X116.202 Y95.565 E.13674
G1 X113.998 Y95.741 E.06932
G1 X111.802 Y96.269 E.07082
G1 X110.27 Y96.889 E.05182
G1 X109.795 Y97.088 E.01615
G1 X107.897 Y98.227 E.0694
G1 X106.194 Y99.644 E.06946
G1 X104.753 Y101.271 E.06814
G1 X103.553 Y103.133 E.06946
G1 X102.641 Y105.19 E.07055
G1 X102.055 Y107.372 E.07084
G1 X101.82 Y109.578 E.06956
G1 X101.926 Y111.795 E.06959
G1 X102.37 Y113.968 E.06954
G1 X103.141 Y116.045 E.06946
G1 X104.227 Y117.99 E.06985
G1 X105.619 Y119.762 E.07065
G1 X107.24 Y121.276 E.06955
G1 X109.029 Y122.5 E.06796
G1 X110.563 Y123.241 E.05341
G1 X110.563 Y125.721 E.07776
G1 X110.94 Y126.324 F9000
;TYPE:External perimeter
G1 F1200
G1 X109.169 Y125.663 E.05927
G1 X107.128 Y124.569 E.07261
G1 X105.253 Y123.211 E.07259
G1 X103.552 Y121.582 E.07385
G1 X102.131 Y119.804 E.07136
G1 X100.941 Y117.818 E.07259
G1 X100.029 Y115.687 E.07268
G1 X99.411 Y113.453 E.07268
G1 X99.1 Y111.158 E.07262
G1 X99.1 Y108.842 E.07262
G1 X99.411 Y106.547 E.07262
G1 X100.029 Y104.312 E.07271
G1 X100.941 Y102.182 E.07265
G1 X102.131 Y100.196 E.07259
G1 X103.577 Y98.387 E.07261
G1 X105.253 Y96.789 E.07261
G1 X107.128 Y95.431 E.07259
G1 X109.169 Y94.337 E.07261
G1 X110.862 Y93.705 E.05666
G1 X111.512 Y93.44 E.02201
G1 X111.56 Y93.316 E.00417
G1 X111.56 Y90.019 E.10337
G1 X111.698 Y88.878 E.03604
G1 X112.099 Y87.822 E.03542
G1 X112.741 Y86.891 E.03546
G1 X113.587 Y86.142 E.03543
G1 X114.588 Y85.617 E.03544
G1 X115.685 Y85.347 E.03542
G1 X116.826 Y85.349 E.03578
G1 X117.912 Y85.617 E.03507
G1 X118.913 Y86.142 E.03544
G1 X119.759 Y86.891 E.03543
G1 X120.401 Y87.822 E.03546
G1 X120.752 Y88.747 E.03102
G1 X120.818 Y89.017 E.00871
G1 X120.94 Y90.088 E.0338
G1 X120.94 Y95.94 E.18349
G1 X116.231 Y95.941 E.14765
G1 X114.085 Y96.108 E.06749
G1 X111.943 Y96.618 E.06904
G1 X110.412 Y97.238 E.05179
G1 X109.988 Y97.412 E.01437
G1 X108.137 Y98.518 E.06761
G1 X106.477 Y99.894 E.0676
G1 X105.018 Y101.544 E.06906
G1 X103.87 Y103.336 E.06673
G1 X103.014 Y105.264 E.06614
G1 X102.43 Y107.413 E.06982
G1 X102.197 Y109.561 E.06774
G1 X102.296 Y111.72 E.06776
G1 X102.716 Y113.81 E.06684
G1 X103.459 Y115.836 E.06766
G1 X104.524 Y117.758 E.0689
G1 X105.88 Y119.49 E.06897
G1 X107.454 Y120.965 E.06763
G1 X109.193 Y122.16 E.06616
G1 X110.94 Y123.004 E.06083
G1 X110.94 Y126.264 E.10221
G1 X110.617 Y126.089 F9000
G1 E-3.5 F3600
;WIPE_START
G1 F7200
G1 X109.169 Y125.663 E-.88834
G1 X108.034 Y125.055 E-.61166
;WIPE_END
G1 X113.357 Y91.242 F9000
G1 E5 F2400
;TYPE:Perimeter
G1 F1200
G1 X113.271 Y91.035 E.00703
G1 X113.102 Y90.184 E.0272
G1 X113.102 Y89.816 E.01154
G1 X113.271 Y88.965 E.0272
G1 X113.412 Y88.625 E.01154
G1 X113.894 Y87.904 E.02719
G1 X114.154 Y87.644 E.01153
G1 X114.875 Y87.162 E.02719
G1 X115.215 Y87.021 E.01154
G1 X116.066 Y86.852 E.0272
G1 X116.434 Y86.852 E.01154
G1 X117.285 Y87.021 E.0272
G1 X117.625 Y87.162 E.01154
G1 X118.346 Y87.644 E.02719
G1 X118.606 Y87.904 E.01153
G1 X119.088 Y88.625 E.02719
G1 X119.229 Y88.965 E.01154
G1 X119.398 Y89.816 E.0272
G1 X119.398 Y90.184 E.01154
G1 X119.229 Y91.035 E.0272
G1 X119.088 Y91.375 E.01154
G1 X118.606 Y92.096 E.02719
G1 X118.346 Y92.356 E.01153
G1 X117.625 Y92.838 E.02719
G1 X117.285 Y92.979 E.01154
G1 X116.434 Y93.148 E.0272
G1 X116.066 Y93.148 E.01154
G1 X115.215 Y92.979 E.0272
G1 X114.739 Y92.747 E.0166
G1 X114.154 Y92.356 E.02206
G1 X113.894 Y92.096 E.01153
G1 X113.412 Y91.375 E.02719
G1 X113.379 Y91.297 E.00266
G1 X113.698 Y91.099 F9000
G1 F1200
G1 X113.641 Y90.961 E.00468
G1 X113.471 Y90.11 E.02721
G1 X113.471 Y89.89 E.0069
G1 X113.641 Y89.039 E.02721
G1 X113.759 Y88.784 E.00881
G1 X114.207 Y88.113 E.0253
G1 X114.363 Y87.957 E.00692
G1 X115.085 Y87.475 E.02722
G1 X115.289 Y87.391 E.00692
G1 X116.14 Y87.221 E.02721
G1 X116.36 Y87.221 E.0069
G1 X117.211 Y87.391 E.02721
G1 X117.415 Y87.475 E.00692
G1 X118.137 Y87.957 E.02722
G1 X118.293 Y88.113 E.00692
G1 X118.775 Y88.835 E.02722
G1 X118.859 Y89.039 E.00692
G1 X119.029 Y89.89 E.02721
G1 X119.029 Y90.11 E.0069
G1 X118.859 Y90.961 E.02721
G1 X118.775 Y91.165 E.00692
G1 X118.293 Y91.887 E.02722
G1 X118.137 Y92.043 E.00692
G1 X117.415 Y92.525 E.02722
G1 X117.211 Y92.609 E.00692
G1 X116.36 Y92.779 E.02721
G1 X116.14 Y92.779 E.0069
G1 X115.289 Y92.609 E.02721
G1 X114.948 Y92.434 E.01202
G1 X114.363 Y92.043 E.02206
G1 X114.207 Y91.887 E.00692
G1 X113.721 Y91.154 E.02758
G1 X114.039 Y90.956 F9000
;TYPE:External perimeter
G1 F1200
G1 X113.841 Y90.037 E.02948
G1 X113.957 Y89.381 E.02089
G1 X114.039 Y89.044 E.01087
G1 X114.522 Y88.32 E.02729
G1 X115.294 Y87.789 E.02938
G1 X116.047 Y87.624 E.02417
G1 X116.287 Y87.591 E.0076
G1 X117.138 Y87.761 E.02721
G1 X117.611 Y88.059 E.01753
G1 X117.979 Y88.323 E.0142
G1 X118.461 Y89.044 E.02719
G1 X118.659 Y89.963 E.02948
G1 X118.489 Y90.888 E.02949
G1 X117.979 Y91.677 E.02946
G1 X117.568 Y91.97 E.01583
G1 X117.138 Y92.239 E.0159
G1 X116.287 Y92.409 E.02721
G1 X115.362 Y92.239 E.02949
G1 X114.573 Y91.729 E.02946
G1 X114.073 Y91.005 E.02759
G1 X113.641 Y90.91 F9000
G1 E-3.5 F3600
;WIPE_START
G1 F7200
G1 X113.841 Y90.037 E-.47282
G1 X113.957 Y89.381 E-.31643
G1 X114.039 Y89.044 E-.16475
G1 X114.522 Y88.32 E-.4134
G1 X114.752 Y88.162 E-.1326
;WIPE_END
G1 X118.067 Y86.686 F9000
G1 E5 F2400
;TYPE:Solid infill
;WIDTH:0.423725
G1 F1200
G1 X118.974 Y87.593 E.04062
G1 X119.469 Y88.31 E.02759
G1 X119.662 Y88.82 E.01727
G1 X119.356 Y88.514 E.0137
G1 X118.844 Y87.737 E.02946
G1 X118.641 Y87.504 E.00979
G1 X117.738 Y86.896 E.03447
G1 X117.18 Y86.337 E.02501
G1 X117.188 Y86.884 F9000
G1 F1200
G1 X116.697 Y86.393 E.02199
G1 X116.157 Y86.392 E.0171
G1 X116.314 Y86.549 E.00703
G1 X116.043 Y86.561 E.00859
G1 X115.83 Y86.603 E.00687
G1 X115.66 Y86.433 E.00761
G1 X115.226 Y86.537 E.01413
G1 X115.381 Y86.693 E.00696
G1 X115.1 Y86.749 E.00907
G1 X114.954 Y86.804 E.00494
G1 X114.823 Y86.673 E.00587
G1 X114.47 Y86.859 E.01263
G1 X114.608 Y86.997 E.00618
G1 X114.283 Y87.211 E.01232
G1 X114.129 Y87.057 E.0069
G1 X113.844 Y87.31 E.01207
G1 X113.961 Y87.427 E.00524
G1 X113.859 Y87.505 E.00407
G1 X113.689 Y87.694 E.00805
G1 X113.558 Y87.563 E.00587
G1 X113.529 Y87.589 E.00123
