; generated by PrusaSlicer 2.6.1+win64 on 2023-11-03 at 16:10:48 UTC

; 

; external perimeters extrusion width = 0.42mm
; perimeters extrusion width = 0.44mm
; infill extrusion width = 0.44mm
; solid infill extrusion width = 0.44mm
; top infill extrusion width = 0.40mm
; first layer extrusion width = 0.42mm

M201 X500 Y500 Z100 E5000 ; sets maximum accelerations, mm/sec^2
M203 X500 Y500 Z10 E60 ; sets maximum feedrates, mm / sec
M204 S500 T1000 ; sets acceleration (S) and retract acceleration (R), mm/sec^2
M205 X8.00 Y8.00 Z0.40 E5.00 ; sets the jerk limits, mm/sec
M205 S0 T0 ; sets the minimum extruding and travel feed rate, mm/sec
;TYPE:Custom
G90 ; use absolute coordinates
M83 ; extruder relative mode
M104 S150 ; set temporary nozzle temp to prevent oozing during homing
M140 S60 ; set final bed temp
G4 S30 ; allow partial nozzle warmup
G28 ; home all axis
G1 Z50 F240
G1 X2.0 Y10 F3000
M104 S205 ; set final nozzle temp
M190 S60 ; wait for bed temp to stabilize
M109 S205 ; wait for nozzle temp to stabilize
G1 Z0.28 F240
G92 E0
G1 X2.0 Y140 E10 F1500 ; prime the nozzle
G1 X2.3 Y140 F5000
G92 E0
G1 X2.3 Y10 E10 F1200 ; prime the nozzle
G92 E0
G21 ; set units to millimeters
G90 ; use absolute coordinates
M83 ; use relative distances for extrusion
; Filament gcode
M107
;LAYER_CHANGE
;Z:0.2
;HEIGHT:0.2
;BEFORE_LAYER_CHANGE
G92 E0
;0.2


G1 E-5 F3600
G1 Z.2 F9000
;AFTER_LAYER_CHANGE
;0.2
G1 X97.204 Y92.449
G1 E5 F2400
M204 S500
;TYPE:Skirt/Brim
;WIDTH:0.42
G1 F1200
G1 X98.664 Y91.055 E.06329
G1 X100.274 Y89.838 E.06328
G1 X101.848 Y88.91 E.05729
G1 X104.267 Y87.852 E.08278
G1 X105.787 Y87.401 E.04971
G1 X107.77 Y87.029 E.06326
G1 X109.784 Y86.888 E.0633
G1 X111.61 Y86.968 E.05731
G1 X114.213 Y87.401 E.08274
G1 X115.733 Y87.852 E.04971
G1 X117.599 Y88.622 E.06329
G1 X119.363 Y89.602 E.06327
G1 X120.952 Y90.741 E.0613
G1 X122.796 Y92.449 E.07881
G1 X124.085 Y94.002 E.06328
G1 X124.967 Y95.319 E.0497
G1 X125.912 Y97.103 E.0633
G1 X126.644 Y98.983 E.06326
G1 X127.156 Y100.936 E.0633
G1 X127.439 Y102.934 E.06327
G1 X127.471 Y105.384 E.07682
G1 X127.309 Y106.961 E.04971
G1 X126.897 Y108.937 E.06329
G1 X126.096 Y111.253 E.07684
G1 X118.038 Y127.834 E.57803
G1 X117.247 Y129.28 E.05168
G1 X116.691 Y130.017 E.02895
G1 X115.542 Y131.15 E.0506
G1 X114.989 Y131.568 E.02173
G1 X113.585 Y132.362 E.05057
G1 X112.058 Y132.885 E.05061
G1 X111.151 Y133.055 E.02893
G1 X109.539 Y133.118 E.05058
G1 X108.051 Y132.905 E.04713
G1 X107.276 Y132.695 E.02518
G1 X106.415 Y132.362 E.02894
G1 X105.105 Y131.626 E.04711
G1 X103.776 Y130.528 E.05405
G1 X102.82 Y129.369 E.04711
G1 X102.388 Y128.691 E.02521
G1 X93.739 Y110.852 E.6216
G1 X93.221 Y109.354 E.0497
G1 X92.76 Y107.389 E.06328
G1 X92.529 Y105.384 E.06328
G1 X92.531 Y103.366 E.06327
G1 X92.764 Y101.361 E.06329
G1 X93.181 Y99.581 E.05732
G1 X94.088 Y97.103 E.08274
G1 X94.813 Y95.692 E.04974
G1 X95.915 Y94.001 E.06329
G1 X97.166 Y92.495 E.06139
G1 X97.456 Y92.736 F9000
G1 F1200
G1 X98.921 Y91.331 E.06364
G1 X100.497 Y90.142 E.0619
G1 X102.035 Y89.237 E.05595
G1 X104.374 Y88.214 E.08005
G1 X105.894 Y87.763 E.04971
G1 X107.835 Y87.4 E.06191
G1 X109.805 Y87.264 E.06191
G1 X111.588 Y87.345 E.05596
G1 X114.106 Y87.763 E.08003
G1 X115.626 Y88.214 E.04971
G1 X117.451 Y88.969 E.06192
G1 X119.176 Y89.93 E.06191
G1 X120.729 Y91.045 E.05994
G1 X122.509 Y92.693 E.07606
G1 X123.537 Y93.901 E.04973
G1 X124.654 Y95.529 E.0619
G1 X125.576 Y97.275 E.06191
G1 X126.291 Y99.116 E.06192
G1 X126.79 Y101.027 E.06193
G1 X127.065 Y102.982 E.0619
G1 X127.096 Y105.345 E.0741
G1 X126.934 Y106.923 E.04974
G1 X126.529 Y108.856 E.06192
G1 X125.756 Y111.089 E.07409
G1 X117.699 Y127.669 E.57798
G1 X116.946 Y129.053 E.0494
G1 X116.39 Y129.789 E.02892
G1 X115.288 Y130.871 E.04842
G1 X114.791 Y131.247 E.01954
G1 X113.449 Y132.011 E.04842
G1 X111.989 Y132.514 E.04842
G1 X111.082 Y132.684 E.02893
G1 X109.539 Y132.741 E.04841
G1 X108.12 Y132.535 E.04496
G1 X107.412 Y132.344 E.02299
G1 X106.551 Y132.011 E.02894
G1 X105.303 Y131.305 E.04496
G1 X104.03 Y130.25 E.05184
G1 X103.076 Y129.082 E.04729
G1 X102.726 Y128.523 E.02068
G1 X94.096 Y110.729 E.62007
G1 X93.471 Y108.856 E.06191
G1 X93.129 Y107.307 E.04974
G1 X92.904 Y105.345 E.06192
G1 X92.908 Y103.371 E.06189
G1 X93.138 Y101.409 E.06194
G1 X93.547 Y99.672 E.05595
G1 X94.424 Y97.275 E.08003
G1 X95.148 Y95.865 E.0497
G1 X96.228 Y94.211 E.06194
G1 X97.417 Y92.782 E.05829
; printing object Filler Cap.stl id:0 copy 0
G1 E-3.5 F3600
;WIPE_START
G1 F7200
G1 X98.921 Y91.331 E-.99267
G1 X99.774 Y90.688 E-.50733
;WIPE_END
G1 X105.636 Y116.347 F9000
G1 E5 F2400
;TYPE:Perimeter
;WIDTH:0.419999
G1 F1200
G1 X105.514 Y116.259 E.00472
G1 X104.058 Y115.592 E.05021
G1 X102.807 Y114.833 E.04588
G1 X101.652 Y113.935 E.04587
G1 X100.608 Y112.911 E.04585
G1 X99.689 Y111.773 E.04586
G1 X98.907 Y110.536 E.04589
G1 X98.273 Y109.218 E.04586
G1 X97.794 Y107.836 E.04586
G1 X97.478 Y106.408 E.04586
G1 X97.334 Y105.008 E.04413
G1 X97.348 Y103.488 E.04766
G1 X97.535 Y102.039 E.04581
G1 X97.888 Y100.619 E.04588
G1 X98.402 Y99.25 E.04585
G1 X99.045 Y97.998 E.04413
G1 X99.886 Y96.732 E.04765
G1 X100.833 Y95.619 E.04582
G1 X101.903 Y94.622 E.04586
G1 X103.081 Y93.755 E.04586
G1 X104.303 Y93.057 E.04412
G1 X105.698 Y92.454 E.04765
G1 X107.099 Y92.038 E.04582
G1 X108.54 Y91.786 E.04587
G1 X110 Y91.702 E.04585
G1 X111.46 Y91.786 E.04585
G1 X112.901 Y92.038 E.04587
G1 X114.304 Y92.454 E.04588
G1 X115.649 Y93.029 E.04586
G1 X116.919 Y93.755 E.04587
G1 X118.097 Y94.622 E.04586
G1 X119.167 Y95.619 E.04586
G1 X120.116 Y96.733 E.04588
G1 X120.929 Y97.949 E.04586
G1 X121.598 Y99.25 E.04587
G1 X122.112 Y100.619 E.04585
G1 X122.465 Y102.039 E.04588
G1 X122.652 Y103.49 E.04587
G1 X122.671 Y104.952 E.04584
G1 X122.522 Y106.408 E.04589
G1 X122.206 Y107.836 E.04586
G1 X121.727 Y109.218 E.04586
G1 X121.093 Y110.536 E.04586
G1 X120.311 Y111.773 E.04589
G1 X119.392 Y112.911 E.04586
G1 X118.348 Y113.935 E.04585
G1 X117.193 Y114.833 E.04587
G1 X115.942 Y115.592 E.04588
G1 X114.403 Y116.302 E.05314
G1 X114.135 Y116.537 E.01118
G1 X113.979 Y116.836 E.01057
G1 X113.936 Y117.116 E.00888
G1 X113.936 Y124.336 E.22638
G1 X113.864 Y125.108 E.02431
G1 X113.666 Y125.806 E.02275
G1 X113.342 Y126.455 E.02274
G1 X112.905 Y127.034 E.02274
G1 X112.369 Y127.523 E.02275
G1 X111.752 Y127.905 E.02275
G1 X111.076 Y128.167 E.02273
G1 X110.363 Y128.3 E.02274
G1 X109.637 Y128.3 E.02276
G1 X108.924 Y128.167 E.02274
G1 X108.248 Y127.905 E.02273
G1 X107.652 Y127.536 E.02198
G1 X107.093 Y127.032 E.0236
G1 X106.658 Y126.455 E.02266
G1 X106.334 Y125.806 E.02274
G1 X106.136 Y125.108 E.02275
G1 X106.064 Y124.336 E.02431
G1 X106.053 Y116.971 E.23092
G1 X105.975 Y116.717 E.00833
G1 X105.81 Y116.473 E.00924
G1 X105.684 Y116.382 E.00487
G1 X105.424 Y116.655 F9000
G1 F1200
G1 X105.357 Y116.602 E.00268
G1 X103.881 Y115.925 E.05091
G1 X102.593 Y115.144 E.04723
G1 X101.404 Y114.22 E.04721
G1 X100.328 Y113.165 E.04725
G1 X99.382 Y111.993 E.04722
G1 X98.577 Y110.72 E.04722
G1 X97.923 Y109.362 E.04726
G1 X97.431 Y107.939 E.04721
G1 X97.105 Y106.468 E.04724
G1 X96.957 Y105.026 E.04545
G1 X96.971 Y103.462 E.04904
G1 X97.164 Y101.969 E.0472
G1 X97.527 Y100.507 E.04723
G1 X98.057 Y99.097 E.04723
G1 X98.719 Y97.807 E.04546
G1 X99.584 Y96.504 E.04904
G1 X100.56 Y95.358 E.0472
G1 X101.662 Y94.331 E.04723
G1 X102.875 Y93.438 E.04723
G1 X104.134 Y92.719 E.04546
G1 X105.569 Y92.098 E.04903
G1 X107.012 Y91.67 E.04719
G1 X108.496 Y91.411 E.04723
G1 X110 Y91.324 E.04724
G1 X111.504 Y91.411 E.04724
G1 X112.988 Y91.67 E.04723
G1 X114.432 Y92.099 E.04723
G1 X115.817 Y92.691 E.04723
G1 X117.125 Y93.438 E.04723
G1 X118.338 Y94.331 E.04723
G1 X119.44 Y95.358 E.04723
G1 X120.417 Y96.505 E.04724
G1 X121.255 Y97.757 E.04724
G1 X121.943 Y99.097 E.04723
G1 X122.473 Y100.507 E.04723
G1 X122.836 Y101.969 E.04723
G1 X123.029 Y103.463 E.04723
G1 X123.049 Y104.969 E.04722
G1 X122.895 Y106.468 E.04725
G1 X122.569 Y107.939 E.04724
G1 X122.077 Y109.362 E.04721
G1 X121.423 Y110.72 E.04726
G1 X120.618 Y111.993 E.04722
G1 X119.672 Y113.165 E.04722
G1 X118.596 Y114.22 E.04725
G1 X117.407 Y115.144 E.04721
G1 X116.119 Y115.925 E.04723
G1 X114.55 Y116.656 E.05427
G1 X114.366 Y116.877 E.00902
G1 X114.313 Y117.116 E.00768
G1 X114.313 Y124.354 E.22694
G1 X114.237 Y125.178 E.02595
G1 X114.019 Y125.943 E.02494
G1 X113.664 Y126.655 E.02495
G1 X113.185 Y127.289 E.02491
G1 X112.597 Y127.825 E.02495
G1 X111.921 Y128.244 E.02494
G1 X111.179 Y128.531 E.02494
G1 X110.398 Y128.677 E.02491
G1 X109.602 Y128.677 E.02496
G1 X108.821 Y128.531 E.02491
G1 X108.079 Y128.244 E.02494
G1 X107.425 Y127.839 E.02412
G1 X106.814 Y127.288 E.0258
G1 X106.336 Y126.655 E.02487
G1 X105.981 Y125.943 E.02495
G1 X105.763 Y125.178 E.02494
G1 X105.687 Y124.354 E.02595
G1 X105.68 Y117.029 E.22967
G1 X105.568 Y116.769 E.00888
G1 X105.471 Y116.693 E.00386
G1 X105.2 Y116.945 F9000
;TYPE:External perimeter
G1 F1200
G1 X103.704 Y116.259 E.0516
G1 X102.379 Y115.455 E.04859
G1 X101.155 Y114.504 E.0486
G1 X100.049 Y113.419 E.04858
G1 X99.075 Y112.213 E.04861
G1 X98.246 Y110.903 E.04861
G1 X97.574 Y109.506 E.04861
G1 X97.067 Y108.041 E.04861
G1 X96.732 Y106.528 E.04859
G1 X96.58 Y105.043 E.0468
G1 X96.594 Y103.436 E.05039
G1 X96.793 Y101.899 E.04859
G1 X97.167 Y100.395 E.04859
G1 X97.711 Y98.944 E.04859
G1 X98.394 Y97.616 E.04682
G1 X99.282 Y96.277 E.05038
G1 X100.287 Y95.097 E.0486
G1 X101.421 Y94.041 E.04858
G1 X102.669 Y93.122 E.04859
G1 X103.965 Y92.381 E.04681
G1 X105.44 Y91.743 E.05039
G1 X106.926 Y91.303 E.04859
G1 X108.453 Y91.036 E.0486
G1 X110 Y90.946 E.04859
G1 X111.547 Y91.036 E.04859
G1 X113.074 Y91.303 E.0486
G1 X114.56 Y91.743 E.04859
G1 X115.985 Y92.353 E.0486
G1 X117.331 Y93.122 E.0486
G1 X118.579 Y94.041 E.04859
G1 X119.713 Y95.097 E.04858
G1 X120.718 Y96.277 E.0486
G1 X121.58 Y97.565 E.04859
G1 X122.289 Y98.944 E.04862
G1 X122.833 Y100.395 E.04859
G1 X123.207 Y101.899 E.04859
G1 X123.406 Y103.436 E.04859
G1 X123.426 Y104.986 E.0486
G1 X123.268 Y106.528 E.0486
G1 X122.933 Y108.041 E.04859
G1 X122.426 Y109.506 E.04861
G1 X121.754 Y110.903 E.04861
G1 X120.925 Y112.213 E.04861
G1 X119.951 Y113.418 E.04858
G1 X118.845 Y114.504 E.0486
G1 X117.621 Y115.455 E.0486
G1 X116.296 Y116.259 E.04859
G1 X114.761 Y116.969 E.05303
G1 X114.69 Y117.116 E.00512
G1 X114.69 Y124.371 E.22748
G1 X114.609 Y125.247 E.02758
G1 X114.372 Y126.079 E.02712
G1 X113.986 Y126.854 E.02715
G1 X113.465 Y127.544 E.02711
G1 X112.826 Y128.127 E.02712
G1 X112.09 Y128.583 E.02715
G1 X111.283 Y128.895 E.02713
G1 X110.433 Y129.054 E.02711
G1 X109.567 Y129.054 E.02715
G1 X108.717 Y128.895 E.02711
G1 X107.91 Y128.583 E.02713
G1 X107.197 Y128.142 E.02629
G1 X106.535 Y127.544 E.02797
G1 X106.014 Y126.854 E.02711
G1 X105.628 Y126.079 E.02715
G1 X105.391 Y125.247 E.02712
G1 X105.31 Y124.371 E.02758
G1 X105.31 Y117.298 E.22177
G1 X105.301 Y117.06 E.00747
G1 X105.24 Y116.99 E.00291
G1 X105.274 Y116.552 F9000
G1 E-3.5 F3600
;WIPE_START
G1 F7200
G1 X103.704 Y116.259 E-.80801
G1 X102.459 Y115.503 E-.69199
;WIPE_END
G1 X108.033 Y121.921 F9000
G1 E5 F2400
;TYPE:Perimeter
G1 F1200
G1 X108.167 Y121.816 E.00534
G1 X108.744 Y121.49 E.02078
G1 X108.998 Y121.392 E.00854
G1 X109.604 Y121.254 E.01949
G1 X109.876 Y121.232 E.00856
G1 X110.536 Y121.275 E.02074
G1 X110.819 Y121.339 E.0091
G1 X111.472 Y121.595 E.02199
G1 X111.722 Y121.741 E.00908
G1 X112.236 Y122.158 E.02075
G1 X112.42 Y122.359 E.00854
G1 X112.771 Y122.873 E.01952
G1 X112.89 Y123.118 E.00854
G1 X113.091 Y123.749 E.02076
G1 X113.136 Y124.318 E.0179
G1 X113.132 Y124.824 E.01587
G1 X112.925 Y125.545 E.02352
G1 X112.771 Y125.898 E.01208
G1 X112.42 Y126.413 E.01954
G1 X112.229 Y126.619 E.00881
G1 X111.681 Y127.056 E.02198
G1 X111.429 Y127.2 E.0091
G1 X110.805 Y127.438 E.02094
G1 X110.297 Y127.514 E.01611
G1 X109.725 Y127.536 E.01795
G1 X109.116 Y127.405 E.01953
G1 X108.736 Y127.277 E.01257
G1 X108.128 Y126.926 E.02201
G1 X107.903 Y126.744 E.00907
G1 X107.457 Y126.255 E.02075
G1 X107.304 Y126.029 E.00856
G1 X107.035 Y125.468 E.01951
G1 X106.953 Y125.208 E.00855
G1 X106.848 Y124.555 E.02074
G1 X106.847 Y124.265 E.00909
G1 X106.952 Y123.571 E.02201
G1 X107.038 Y123.295 E.00906
G1 X107.331 Y122.701 E.02077
G1 X107.491 Y122.471 E.00878
G1 X107.986 Y121.958 E.02235
G1 X108.297 Y122.202 F9000
G1 F1200
G1 X108.929 Y121.819 E.02317
G1 X109.688 Y121.621 E.02459
G1 X110.512 Y121.652 E.02585
G1 X111.334 Y121.946 E.02737
G1 X111.998 Y122.451 E.02616
G1 X112.459 Y123.085 E.02458
G1 X112.732 Y123.863 E.02585
G1 X112.759 Y124.737 E.02742
G1 X112.566 Y125.43 E.02256
G1 X112.459 Y125.686 E.0087
G1 X112.109 Y126.2 E.0195
G1 X111.647 Y126.601 E.01918
G1 X111.295 Y126.847 E.01346
G1 X110.673 Y127.085 E.02088
G1 X109.896 Y127.166 E.02449
G1 X109.196 Y127.037 E.02232
G1 X108.925 Y126.95 E.00892
G1 X108.317 Y126.599 E.02201
G1 X107.957 Y126.244 E.01585
G1 X107.644 Y125.865 E.01541
G1 X107.374 Y125.305 E.01949
G1 X107.325 Y125.149 E.00513
G1 X107.221 Y124.495 E.02076
G1 X107.325 Y123.628 E.02738
G1 X107.669 Y122.868 E.02616
G1 X108.246 Y122.233 E.0269
G1 X108.494 Y122.507 F9000
;TYPE:External perimeter
G1 F1200
G1 X109.115 Y122.147 E.02251
G1 X109.772 Y121.989 E.02119
G1 X110.487 Y122.028 E.02245
G1 X111.197 Y122.297 E.02381
G1 X111.76 Y122.744 E.02254
G1 X112.148 Y123.298 E.02121
G1 X112.373 Y123.978 E.02246
G1 X112.382 Y124.737 E.0238
G1 X112.206 Y125.316 E.01897
G1 X112.06 Y125.602 E.01007
G1 X111.769 Y126.021 E.016
G1 X111.211 Y126.466 E.02238
G1 X110.561 Y126.724 E.02193
G1 X109.868 Y126.79 E.02183
G1 X109.277 Y126.668 E.01892
G1 X108.998 Y126.557 E.00941
G1 X108.505 Y126.273 E.01784
G1 X108.014 Y125.747 E.02256
G1 X107.727 Y125.169 E.02023
G1 X107.698 Y125.089 E.00267
G1 X107.593 Y124.436 E.02074
G1 X107.697 Y123.684 E.0238
G1 X108.007 Y123.035 E.02255
G1 X108.453 Y122.551 E.02064
G1 X108.433 Y122.112 F9000
G1 E-3.5 F3600
;WIPE_START
G1 F7200
G1 X109.115 Y122.147 E-.36838
G1 X109.772 Y121.989 E-.32097
G1 X110.487 Y122.028 E-.34013
G1 X111.197 Y122.297 E-.36064
G1 X111.378 Y122.441 E-.10988
;WIPE_END
G1 X121.049 Y98.445 F9000
G1 E5 F2400
;TYPE:Solid infill
;WIDTH:0.420026
G1 F1200
G1 X116.391 Y93.788 E.20654
G1 X115.519 Y93.289 E.0315
G1 X115.24 Y93.17 E.00951
G1 X121.22 Y99.15 E.26518
G1 X121.332 Y99.368 E.00769
G1 X121.589 Y100.052 E.02291
G1 X114.309 Y92.772 E.32283
G1 X113.531 Y92.528 E.02557
G1 X121.876 Y100.872 E.37004
G1 X122.052 Y101.582 E.02294
G1 X112.782 Y92.312 E.41108
G1 X112.136 Y92.199 E.02056
G1 X122.201 Y102.264 E.44633
G1 X122.28 Y102.877 E.01938
G1 X111.49 Y92.086 E.4785
G1 X110.916 Y92.045 E.01804
G1 X122.36 Y103.489 E.50748
G1 X122.369 Y104.032 E.01703
G1 X110.35 Y92.013 E.53298
G1 X110 Y91.992 E.01099
G1 X109.807 Y92.004 E.00606
G1 X122.376 Y104.572 E.55735
G1 X122.381 Y104.939 E.01151
G1 X122.365 Y105.094 E.00489
G1 X109.303 Y92.033 E.57921
G1 X108.799 Y92.062 E.01583
G1 X122.315 Y105.578 E.59936
G1 X122.266 Y106.062 E.01525
G1 X108.323 Y92.119 E.6183
G1 X107.869 Y92.198 E.01445
G1 X122.198 Y106.527 E.63542
G1 X122.101 Y106.964 E.01404
G1 X107.415 Y92.277 E.65127
G1 X107.165 Y92.321 E.00796
G1 X106.98 Y92.376 E.00605
G1 X122.005 Y107.401 E.66628
G1 X121.901 Y107.83 E.01384
G1 X106.569 Y92.498 E.67989
G1 X106.157 Y92.62 E.01347
G1 X121.764 Y108.226 E.69207
G1 X121.626 Y108.622 E.01315
G1 X105.751 Y92.747 E.70397
G1 X105.379 Y92.908 E.01271
G1 X121.489 Y109.019 E.71442
G1 X121.324 Y109.387 E.01265
G1 X105.006 Y93.069 E.72362
G1 X104.634 Y93.23 E.01271
G1 X121.151 Y109.747 E.73244
G1 X120.978 Y110.107 E.01252
G1 X104.277 Y93.406 E.7406
G1 X103.937 Y93.6 E.01227
G1 X120.798 Y110.46 E.74768
G1 X120.591 Y110.787 E.01214
G1 X103.598 Y93.794 E.75355
G1 X103.259 Y93.988 E.01225
G1 X120.384 Y111.114 E.75943
G1 X120.178 Y111.44 E.01209
G1 X102.95 Y94.212 E.76397
G1 X102.643 Y94.438 E.01195
G1 X119.955 Y111.751 E.76772
G1 X119.717 Y112.046 E.01189
G1 X102.335 Y94.664 E.7708
G1 X102.034 Y94.897 E.01194
G1 X119.479 Y112.341 E.77357
G1 X119.241 Y112.636 E.01189
G1 X101.758 Y95.154 E.77526
G1 X101.482 Y95.411 E.01183
G1 X118.98 Y112.909 E.77594
G1 X118.71 Y113.173 E.01184
G1 X101.206 Y95.668 E.77623
G1 X100.943 Y95.938 E.01182
