; generated by PrusaSlicer 2.6.1+win64 on 2023-11-03 at 16:16:49 UTC

; 

; external perimeters extrusion width = 0.42mm
; perimeters extrusion width = 0.44mm
; infill extrusion width = 0.44mm
; solid infill extrusion width = 0.44mm
; top infill extrusion width = 0.40mm
; first layer extrusion width = 0.42mm

M201 X500 Y500 Z100 E5000 ; sets maximum accelerations, mm/sec^2
M203 X500 Y500 Z10 E60 ; sets maximum feedrates, mm / sec
M204 S500 T1000 ; sets acceleration (S) and retract acceleration (R), mm/sec^2
M205 X8.00 Y8.00 Z0.40 E5.00 ; sets the jerk limits, mm/sec
M205 S0 T0 ; sets the minimum extruding and travel feed rate, mm/sec
;TYPE:Custom
G90 ; use absolute coordinates
M83 ; extruder relative mode
M104 S150 ; set temporary nozzle temp to prevent oozing during homing
M140 S60 ; set final bed temp
G4 S30 ; allow partial nozzle warmup
G28 ; home all axis
G1 Z50 F240
G1 X2.0 Y10 F3000
M104 S205 ; set final nozzle temp
M190 S60 ; wait for bed temp to stabilize
M109 S205 ; wait for nozzle temp to stabilize
G1 Z0.28 F240
G92 E0
G1 X2.0 Y140 E10 F1500 ; prime the nozzle
G1 X2.3 Y140 F5000
G92 E0
G1 X2.3 Y10 E10 F1200 ; prime the nozzle
G92 E0
G21 ; set units to millimeters
G90 ; use absolute coordinates
M83 ; use relative distances for extrusion
; Filament gcode
M107
;LAYER_CHANGE
;Z:0.2
;HEIGHT:0.2
;BEFORE_LAYER_CHANGE
G92 E0
;0.2


G1 E-5 F3600
G1 Z.2 F9000
;AFTER_LAYER_CHANGE
;0.2
G1 X70.862 Y98.88
G1 E5 F2400
M204 S500
;TYPE:Skirt/Brim
;WIDTH:0.42
G1 F1200
G1 X72.376 Y98.006 E.05481
G1 X73.376 Y97.738 E.03246
G1 X74.25 Y97.623 E.02764
G1 X145.75 Y97.623 E2.24183
G1 X146.624 Y97.738 E.02764
G1 X147.624 Y98.006 E.03246
G1 X149.138 Y98.88 E.05481
G1 X149.87 Y99.612 E.03246
G1 X150.744 Y101.126 E.05481
G1 X151.012 Y102.126 E.03246
G1 X151.127 Y103 E.02764
G1 X151.127 Y119 E.50167
G1 X150.733 Y120.583 E.05115
G1 X149.643 Y121.797 E.05116
G1 X147.75 Y122.377 E.06208
G1 X72.25 Y122.377 E2.36725
G1 X70.667 Y121.983 E.05115
G1 X69.453 Y120.893 E.05116
G1 X68.873 Y119 E.06208
G1 X68.873 Y103 E.50167
G1 X68.988 Y102.126 E.02764
G1 X69.256 Y101.126 E.03246
G1 X70.13 Y99.612 E.05481
G1 X70.82 Y98.922 E.0306
; printing object Powerbank Holder.stl id:0 copy 0
G1 E-3.5 F3600
;WIPE_START
G1 F7200
G1 X72.376 Y98.006 E-.85766
G1 X73.376 Y97.738 E-.49176
G1 X73.69 Y97.697 E-.15058
;WIPE_END
G1 X73.801 Y102.222 F9000
G1 E5 F2400
;TYPE:Perimeter
;WIDTH:0.419999
G1 F1200
G1 X74.39 Y102.064 E.01912
G1 X145.61 Y102.064 E2.23305
G1 X146.199 Y102.222 E.01912
G1 X146.528 Y102.551 E.01459
G1 X146.644 Y102.983 E.01402
G1 X146.686 Y103.303 E.01012
G1 X146.686 Y117.936 E.45881
G1 X73.314 Y117.936 E2.30052
G1 X73.314 Y103.14 E.46392
G1 X73.472 Y102.551 E.01912
G1 X73.758 Y102.264 E.0127
G1 X73.606 Y101.884 F9000
G1 F1200
G1 X74.34 Y101.687 E.02383
G1 X145.66 Y101.687 E2.23618
G1 X146.394 Y101.884 E.02383
G1 X146.866 Y102.356 E.02093
G1 X147.063 Y103.09 E.02383
G1 X147.063 Y118.313 E.47731
G1 X72.937 Y118.313 E2.32416
G1 X72.937 Y103.09 E.47731
G1 X73.134 Y102.356 E.02383
G1 X73.563 Y101.926 E.01904
G1 X73.41 Y101.546 F9000
;TYPE:External perimeter
G1 F1200
G1 X74.291 Y101.31 E.0286
G1 X145.709 Y101.31 E2.23926
G1 X146.59 Y101.546 E.0286
G1 X147.204 Y102.16 E.02723
G1 X147.44 Y103.041 E.0286
G1 X147.44 Y118.69 E.49066
G1 X72.56 Y118.69 E2.34781
G1 X72.56 Y103.041 E.49066
G1 X72.796 Y102.16 E.0286
G1 X73.368 Y101.588 E.02536
G1 X73.757 Y101.745 F9000
G1 E-3.5 F3600
;WIPE_START
G1 F7200
G1 X74.291 Y101.31 E-.45788
G1 X76.485 Y101.31 E-1.04212
;WIPE_END
G1 X146.508 Y102.942 F9000
G1 E5 F2400
;TYPE:Solid infill
;WIDTH:0.42112
G1 F1200
G1 X146.048 Y102.482 E.02046
G1 X145.572 Y102.355 E.01549
G1 X145.385 Y102.355 E.00588
G1 X146.395 Y103.365 E.04492
G1 X146.395 Y103.9 E.01682
G1 X144.85 Y102.355 E.06871
G1 X144.316 Y102.355 E.01679
G1 X146.395 Y104.434 E.09246
G1 X146.395 Y104.969 E.01682
G1 X143.781 Y102.355 E.11625
G1 X143.246 Y102.355 E.01682
G1 X146.395 Y105.504 E.14005
G1 X146.395 Y106.039 E.01682
G1 X142.711 Y102.355 E.16384
G1 X142.176 Y102.355 E.01682
G1 X146.395 Y106.574 E.18763
G1 X146.395 Y107.109 E.01682
G1 X141.641 Y102.355 E.21143
G1 X141.106 Y102.355 E.01682
G1 X146.395 Y107.644 E.23522
G1 X146.395 Y108.178 E.01679
G1 X140.572 Y102.355 E.25897
G1 X140.037 Y102.355 E.01682
G1 X146.395 Y108.713 E.28276
G1 X146.395 Y109.248 E.01682
G1 X139.502 Y102.355 E.30656
G1 X138.967 Y102.355 E.01682
G1 X146.395 Y109.783 E.33035
G1 X146.395 Y110.318 E.01682
G1 X138.432 Y102.355 E.35414
G1 X137.897 Y102.355 E.01682
G1 X146.395 Y110.853 E.37794
G1 X146.395 Y111.388 E.01682
G1 X137.362 Y102.355 E.40173
G1 X136.828 Y102.355 E.01679
G1 X146.395 Y111.922 E.42548
G1 X146.395 Y112.457 E.01682
G1 X136.293 Y102.355 E.44927
G1 X135.758 Y102.355 E.01682
G1 X146.395 Y112.992 E.47306
G1 X146.395 Y113.527 E.01682
G1 X135.223 Y102.355 E.49686
G1 X134.688 Y102.355 E.01682
G1 X146.395 Y114.062 E.52065
G1 X146.395 Y114.597 E.01682
G1 X134.153 Y102.355 E.54444
G1 X133.618 Y102.355 E.01682
G1 X146.395 Y115.132 E.56824
G1 X146.395 Y115.666 E.01679
G1 X133.084 Y102.355 E.59199
G1 X132.549 Y102.355 E.01682
G1 X146.395 Y116.201 E.61578
G1 X146.395 Y116.736 E.01682
G1 X132.014 Y102.355 E.63957
G1 X131.479 Y102.355 E.01682
G1 X146.395 Y117.271 E.66337
G1 X146.395 Y117.645 E.01176
G1 X146.235 Y117.645 E.00503
G1 X130.944 Y102.355 E.68002
G1 X130.409 Y102.355 E.01682
G1 X145.7 Y117.645 E.68002
G1 X145.165 Y117.645 E.01682
G1 X129.874 Y102.355 E.68002
G1 X129.34 Y102.355 E.01679
G1 X144.631 Y117.645 E.68002
G1 X144.096 Y117.645 E.01682
G1 X128.805 Y102.355 E.68002
G1 X128.27 Y102.355 E.01682
G1 X143.561 Y117.645 E.68002
G1 X143.026 Y117.645 E.01682
G1 X127.735 Y102.355 E.68002
G1 X127.2 Y102.355 E.01682
G1 X142.491 Y117.645 E.68002
G1 X141.956 Y117.645 E.01682
G1 X126.665 Y102.355 E.68002
G1 X126.13 Y102.355 E.01682
G1 X141.421 Y117.645 E.68002
G1 X140.887 Y117.645 E.01679
G1 X125.596 Y102.355 E.68002
G1 X125.061 Y102.355 E.01682
G1 X140.352 Y117.645 E.68002
G1 X139.817 Y117.645 E.01682
G1 X124.526 Y102.355 E.68002
G1 X123.991 Y102.355 E.01682
G1 X139.282 Y117.645 E.68002
G1 X138.747 Y117.645 E.01682
G1 X123.456 Y102.355 E.68002
G1 X122.921 Y102.355 E.01682
G1 X138.212 Y117.645 E.68002
G1 X137.677 Y117.645 E.01682
G1 X122.386 Y102.355 E.68002
G1 X121.852 Y102.355 E.01679
G1 X137.143 Y117.645 E.68002
G1 X136.608 Y117.645 E.01682
G1 X121.317 Y102.355 E.68002
G1 X120.782 Y102.355 E.01682
G1 X136.073 Y117.645 E.68002
G1 X135.538 Y117.645 E.01682
G1 X120.247 Y102.355 E.68002
G1 X119.712 Y102.355 E.01682
G1 X135.003 Y117.645 E.68002
G1 X134.468 Y117.645 E.01682
G1 X119.177 Y102.355 E.68002
G1 X118.642 Y102.355 E.01682
G1 X133.933 Y117.645 E.68002
G1 X133.399 Y117.645 E.01679
G1 X118.108 Y102.355 E.68002
G1 X117.573 Y102.355 E.01682
G1 X132.864 Y117.645 E.68002
G1 X132.329 Y117.645 E.01682
G1 X117.038 Y102.355 E.68002
G1 X116.503 Y102.355 E.01682
G1 X131.794 Y117.645 E.68002
G1 X131.259 Y117.645 E.01682
G1 X115.968 Y102.355 E.68002
G1 X115.433 Y102.355 E.01682
G1 X130.724 Y117.645 E.68002
G1 X130.189 Y117.645 E.01682
G1 X114.899 Y102.355 E.68
G1 X114.364 Y102.355 E.01682
G1 X129.655 Y117.645 E.68002
G1 X129.12 Y117.645 E.01682
G1 X113.829 Y102.355 E.68002
G1 X113.294 Y102.355 E.01682
G1 X128.585 Y117.645 E.68002
G1 X128.05 Y117.645 E.01682
G1 X112.759 Y102.355 E.68002
G1 X112.224 Y102.355 E.01682
G1 X127.515 Y117.645 E.68002
G1 X126.98 Y117.645 E.01682
G1 X111.689 Y102.355 E.68002
G1 X111.155 Y102.355 E.01679
G1 X126.446 Y117.645 E.68002
G1 X125.911 Y117.645 E.01682
G1 X110.62 Y102.355 E.68002
G1 X110.085 Y102.355 E.01682
G1 X125.376 Y117.645 E.68002
G1 X124.841 Y117.645 E.01682
G1 X109.55 Y102.355 E.68002
G1 X109.015 Y102.355 E.01682
G1 X124.306 Y117.645 E.68002
G1 X123.771 Y117.645 E.01682
G1 X108.48 Y102.355 E.68002
G1 X107.945 Y102.355 E.01682
G1 X123.236 Y117.645 E.68002
G1 X122.702 Y117.645 E.01679
G1 X107.411 Y102.355 E.68002
G1 X106.876 Y102.355 E.01682
G1 X122.167 Y117.645 E.68002
G1 X121.632 Y117.645 E.01682
G1 X106.341 Y102.355 E.68002
G1 X105.806 Y102.355 E.01682
G1 X121.097 Y117.645 E.68002
G1 X120.562 Y117.645 E.01682
G1 X105.271 Y102.355 E.68002
G1 X104.736 Y102.355 E.01682
G1 X120.027 Y117.645 E.68002
G1 X119.492 Y117.645 E.01682
G1 X104.201 Y102.355 E.68002
G1 X103.667 Y102.355 E.01679
G1 X118.958 Y117.645 E.68002
G1 X118.423 Y117.645 E.01682
G1 X103.132 Y102.355 E.68002
G1 X102.597 Y102.355 E.01682
G1 X117.888 Y117.645 E.68002
G1 X117.353 Y117.645 E.01682
G1 X102.062 Y102.355 E.68002
G1 X101.527 Y102.355 E.01682
G1 X116.818 Y117.645 E.68002
G1 X116.283 Y117.645 E.01682
G1 X100.992 Y102.355 E.68002
G1 X100.457 Y102.355 E.01682
G1 X115.748 Y117.645 E.68002
G1 X115.214 Y117.645 E.01679
G1 X99.923 Y102.355 E.68002
G1 X99.388 Y102.355 E.01682
G1 X114.679 Y117.645 E.68002
G1 X114.144 Y117.645 E.01682
G1 X98.853 Y102.355 E.68002
G1 X98.318 Y102.355 E.01682
G1 X113.609 Y117.645 E.68002
G1 X113.074 Y117.645 E.01682
G1 X97.783 Y102.355 E.68002
G1 X97.248 Y102.355 E.01682
G1 X112.539 Y117.645 E.68002
G1 X112.004 Y117.645 E.01682
G1 X96.713 Y102.355 E.68002
G1 X96.179 Y102.355 E.01679
G1 X111.47 Y117.645 E.68002
G1 X110.935 Y117.645 E.01682
G1 X95.644 Y102.355 E.68002
G1 X95.109 Y102.355 E.01682
G1 X110.4 Y117.645 E.68002
G1 X109.865 Y117.645 E.01682
G1 X94.574 Y102.355 E.68002
G1 X94.039 Y102.355 E.01682
G1 X109.33 Y117.645 E.68002
G1 X108.795 Y117.645 E.01682
G1 X93.504 Y102.355 E.68002
G1 X92.969 Y102.355 E.01682
G1 X108.26 Y117.645 E.68002
G1 X107.726 Y117.645 E.01679
G1 X92.435 Y102.355 E.68002
G1 X91.9 Y102.355 E.01682
G1 X107.191 Y117.645 E.68002
G1 X106.656 Y117.645 E.01682
G1 X91.365 Y102.355 E.68002
G1 X90.83 Y102.355 E.01682
G1 X106.121 Y117.645 E.68002
G1 X105.586 Y117.645 E.01682
G1 X90.295 Y102.355 E.68002
G1 X89.76 Y102.355 E.01682
G1 X105.051 Y117.645 E.68002
G1 X104.516 Y117.645 E.01682
G1 X89.225 Y102.355 E.68002
G1 X88.691 Y102.355 E.01679
G1 X103.982 Y117.645 E.68002
G1 X103.447 Y117.645 E.01682
G1 X88.156 Y102.355 E.68002
G1 X87.621 Y102.355 E.01682
G1 X102.912 Y117.645 E.68002
G1 X102.377 Y117.645 E.01682
G1 X87.086 Y102.355 E.68002
G1 X86.551 Y102.355 E.01682
G1 X101.842 Y117.645 E.68002
G1 X101.307 Y117.645 E.01682
G1 X86.016 Y102.355 E.68002
G1 X85.481 Y102.355 E.01682
G1 X100.772 Y117.645 E.68002
G1 X100.238 Y117.645 E.01679
G1 X84.947 Y102.355 E.68002
G1 X84.412 Y102.355 E.01682
G1 X99.703 Y117.645 E.68002
G1 X99.168 Y117.645 E.01682
G1 X83.877 Y102.355 E.68002
G1 X83.342 Y102.355 E.01682
G1 X98.633 Y117.645 E.68002
G1 X98.098 Y117.645 E.01682
G1 X82.807 Y102.355 E.68002
G1 X82.272 Y102.355 E.01682
G1 X97.563 Y117.645 E.68002
G1 X97.028 Y117.645 E.01682
G1 X81.737 Y102.355 E.68002
G1 X81.203 Y102.355 E.01679
G1 X96.494 Y117.645 E.68002
G1 X95.959 Y117.645 E.01682
G1 X80.668 Y102.355 E.68002
G1 X80.133 Y102.355 E.01682
G1 X95.424 Y117.645 E.68002
G1 X94.889 Y117.645 E.01682
G1 X79.598 Y102.355 E.68002
G1 X79.063 Y102.355 E.01682
G1 X94.354 Y117.645 E.68002
G1 X93.819 Y117.645 E.01682
G1 X78.528 Y102.355 E.68002
G1 X77.993 Y102.355 E.01682
G1 X93.284 Y117.645 E.68002
G1 X92.75 Y117.645 E.01679
G1 X77.459 Y102.355 E.68002
G1 X76.924 Y102.355 E.01682
G1 X92.215 Y117.645 E.68002
G1 X91.68 Y117.645 E.01682
G1 X76.389 Y102.355 E.68002
G1 X75.854 Y102.355 E.01682
G1 X91.145 Y117.645 E.68002
G1 X90.61 Y117.645 E.01682
G1 X75.319 Y102.355 E.68002
G1 X74.784 Y102.355 E.01682
G1 X90.075 Y117.645 E.68002
G1 X89.54 Y117.645 E.01682
G1 X74.287 Y102.392 E.67835
G1 X73.951 Y102.482 E.01094
G1 X73.897 Y102.537 E.00242
G1 X89.006 Y117.645 E.67193
G1 X88.471 Y117.645 E.01682
G1 X73.689 Y102.864 E.65738
G1 X73.605 Y103.178 E.01022
G1 X73.605 Y103.314 E.00428
G1 X87.936 Y117.645 E.63735
G1 X87.401 Y117.645 E.01682
G1 X73.605 Y103.849 E.61356
G1 X73.605 Y104.384 E.01682
G1 X86.866 Y117.645 E.58976
G1 X86.331 Y117.645 E.01682
G1 X73.605 Y104.919 E.56597
G1 X73.605 Y105.454 E.01682
G1 X85.796 Y117.645 E.54218
G1 X85.262 Y117.645 E.01679
G1 X73.605 Y105.988 E.51843
G1 X73.605 Y106.523 E.01682
G1 X84.727 Y117.645 E.49463
G1 X84.192 Y117.645 E.01682
G1 X73.605 Y107.058 E.47084
G1 X73.605 Y107.593 E.01682
G1 X83.657 Y117.645 E.44705
G1 X83.122 Y117.645 E.01682
G1 X73.605 Y108.128 E.42325
G1 X73.605 Y108.663 E.01682
G1 X82.587 Y117.645 E.39946
G1 X82.052 Y117.645 E.01682
G1 X73.605 Y109.198 E.37567
G1 X73.605 Y109.732 E.01679
G1 X81.518 Y117.645 E.35192
G1 X80.983 Y117.645 E.01682
G1 X73.605 Y110.267 E.32812
G1 X73.605 Y110.802 E.01682
G1 X80.448 Y117.645 E.30433
G1 X79.913 Y117.645 E.01682
G1 X73.605 Y111.337 E.28054
G1 X73.605 Y111.872 E.01682
G1 X79.378 Y117.645 E.25675
G1 X78.843 Y117.645 E.01682
G1 X73.605 Y112.407 E.23295
G1 X73.605 Y112.941 E.01679
G1 X78.309 Y117.645 E.2092
G1 X77.774 Y117.645 E.01682
G1 X73.605 Y113.476 E.18541
G1 X73.605 Y114.011 E.01682
G1 X77.239 Y117.645 E.16162
G1 X76.704 Y117.645 E.01682
G1 X73.605 Y114.546 E.13782
G1 X73.605 Y115.081 E.01682
G1 X76.169 Y117.645 E.11403
G1 X75.634 Y117.645 E.01682
G1 X73.605 Y115.616 E.09024
G1 X73.605 Y116.151 E.01682
G1 X75.099 Y117.645 E.06644
G1 X74.565 Y117.645 E.01679
G1 X73.605 Y116.685 E.04269
G1 X73.605 Y117.22 E.01682
G1 X74.199 Y117.815 E.02644
; stop printing object Powerbank Holder.stl id:0 copy 0
M106 S255
;LAYER_CHANGE
;Z:0.48
;HEIGHT:0.28
;BEFORE_LAYER_CHANGE
G92 E0
;0.48


G1 E-3.5 F3600
;WIPE_START
G1 F7200
G1 X73.605 Y117.22 E-.39936
G1 X73.605 Y116.685 E-.25412
G1 X74.565 Y117.645 E-.64488
G1 X74.99 Y117.645 E-.20164
;WIPE_END
G1 Z.48 F9000
;AFTER_LAYER_CHANGE
;0.48
M104 S200 ; set temperature
G1 X74.99 Y122.377
G1 E5 F2400
;TYPE:Skirt/Brim
;WIDTH:0.42
G1 X72.25 Y122.377 E.1148
G1 X70.667 Y121.983 E.06835
G1 X69.453 Y120.893 E.06836
G1 X68.873 Y119 E.08295
G1 X68.873 Y103 E.67036
G1 X68.988 Y102.126 E.03693
G1 X69.256 Y101.126 E.04338
G1 X70.13 Y99.612 E.07324
G1 X70.862 Y98.88 E.04337
G1 X72.376 Y98.006 E.07324
G1 X73.376 Y97.738 E.04338
G1 X74.25 Y97.623 E.03693
G1 X145.75 Y97.623 E2.99567
G1 X146.624 Y97.738 E.03693
G1 X147.624 Y98.006 E.04338
G1 X149.138 Y98.88 E.07324
G1 X149.87 Y99.612 E.04337
G1 X150.744 Y101.126 E.07324
G1 X151.012 Y102.126 E.04338
G1 X151.127 Y103 E.03693
G1 X151.127 Y119 E.67036
G1 X150.733 Y120.583 E.06835
G1 X149.643 Y121.797 E.06836
G1 X147.75 Y122.377 E.08295
G1 X75.05 Y122.377 E3.04595
; printing object Powerbank Holder.stl id:0 copy 0
G1 E-3.5 F3600
;WIPE_START
G1 F7200
G1 X72.25 Y122.377 E-1.33
G1 X71.903 Y122.291 E-.17
;WIPE_END
G1 X73.21 Y118.04 F9000
G1 E5 F2400
;TYPE:Perimeter
;WIDTH:0.44
G1 X73.21 Y103.127 E.65954
G1 X73.38 Y102.495 E.02894
G1 X73.747 Y102.129 E.02292
G1 X74.376 Y101.96 E.0288
G1 X145.626 Y101.961 E3.15108
G1 X146.253 Y102.129 E.02871
G1 X146.622 Y102.497 E.02305
G1 X146.744 Y102.953 E.02088
G1 X146.79 Y103.303 E.01561
G1 X146.79 Y118.04 E.65175
G1 X73.27 Y118.04 E3.25147
G1 X72.83 Y118.42 F9000
G1 F2400
G1 X72.83 Y103.077 E.67855
G1 X73.039 Y102.299 E.03563
G1 X73.55 Y101.788 E.03196
G1 X74.326 Y101.58 E.03553
G1 X145.676 Y101.581 E3.1555
G1 X146.45 Y101.788 E.03543
G1 X146.962 Y102.3 E.03202
G1 X147.17 Y103.076 E.03553
G1 X147.17 Y118.42 E.6786
G1 X72.89 Y118.42 E3.28508
G1 X72.46 Y118.79 F9000
;TYPE:External perimeter
;WIDTH:0.42
G1 F1500
G1 X72.46 Y103.028 E.66039
G1 X72.708 Y102.107 E.03996
G1 X73.359 Y101.456 E.03857
G1 X74.278 Y101.21 E.03986
G1 X145.725 Y101.211 E2.99344
G1 X146.641 Y101.456 E.03973
G1 X147.294 Y102.109 E.03869
G1 X147.54 Y103.028 E.03986
G1 X147.54 Y118.79 E.66039
G1 X72.52 Y118.79 E3.14314
G1 X72.636 Y118.431 F9000
G1 E-3.5 F3600
;WIPE_START
G1 F7200
G1 X72.508 Y115.632 E-1.5
;WIPE_END
G1 X73.847 Y102.308 F9000
G1 E5 F2400
;TYPE:Solid infill
;WIDTH:0.400089
G1 X73.559 Y102.596 E.01612
;WIDTH:0.44
G1 X73.543 Y103.015 E.01854
G1 X74.265 Y102.292 E.04519
G1 X74.843 Y102.252 E.02562
G1 X73.502 Y103.593 E.08387
G1 X73.502 Y104.13 E.02375
G1 X75.38 Y102.252 E.11746
G1 X75.917 Y102.252 E.02375
G1 X73.502 Y104.667 E.15104
G1 X73.502 Y105.204 E.02375
G1 X76.454 Y102.252 E.18463
G1 X76.992 Y102.252 E.02379
G1 X73.502 Y105.742 E.21828
G1 X73.502 Y106.279 E.02375
G1 X77.529 Y102.252 E.25187
G1 X78.066 Y102.252 E.02375
G1 X73.502 Y106.816 E.28545
G1 X73.502 Y107.354 E.02379
G1 X78.603 Y102.252 E.31907
